; 4-Axis XYZB Gcode
; Generated from test_cube.stl
; Duet3 RepRapFirmware

; Start sequence
G28  ; Home all axes
G29  ; Auto leveling (if configured)
G1 Z5 F300  ; Lift nozzle

; Heating
M104 S200  ; Set extruder temp
M109 S200  ; Wait for extruder
M140 S60   ; Set bed temp
M190 S60   ; Wait for bed

; Layer 1
G1 Z2.000 F150
G1 B11.25 F100  ; Rotate extruder
G1 X-0.187 Y-0.150 F150
G1 X0.833 Y-0.172 E0.1021 F40
G1 X10.202 Y-0.129 E1.0390 F40
G1 X10.218 Y0.900 E1.0458 F40
G1 X10.157 Y10.182 E1.4620 F40
G1 X9.139 Y10.196 E1.3929 F40
G1 X-0.136 Y10.198 E1.0348 F40
G1 X-0.208 Y0.880 E0.1031 F40
G1 X-0.187 Y-0.150 E0.0000 F40
G1 X0.000 Y0.000 F150
G1 X10.000 Y0.000 E1.0000 F40
G1 X0.000 Y4.000 F150
G1 X10.000 Y4.000 E1.0000 F40
G1 X0.000 Y8.000 F150
G1 X10.000 Y8.000 E1.0000 F40

; Layer 2
G1 Z4.000 F150
G1 B22.50 F100  ; Rotate extruder
G1 X-0.187 Y-0.150 F150
G1 X0.833 Y-0.172 E0.1021 F40
G1 X10.202 Y-0.129 E1.0390 F40
G1 X10.218 Y0.900 E1.0458 F40
G1 X10.157 Y10.182 E1.4620 F40
G1 X9.139 Y10.196 E1.3929 F40
G1 X-0.136 Y10.198 E1.0348 F40
G1 X-0.208 Y0.880 E0.1031 F40
G1 X-0.187 Y-0.150 E0.0000 F40
G1 X0.000 Y0.000 F150
G1 X10.000 Y0.000 E1.0000 F40
G1 X0.000 Y4.000 F150
G1 X10.000 Y4.000 E1.0000 F40
G1 X0.000 Y8.000 F150
G1 X10.000 Y8.000 E1.0000 F40

; Layer 3
G1 Z6.000 F150
G1 B33.75 F100  ; Rotate extruder
G1 X-0.187 Y-0.150 F150
G1 X0.833 Y-0.172 E0.1021 F40
G1 X10.202 Y-0.129 E1.0390 F40
G1 X10.218 Y0.900 E1.0458 F40
G1 X10.157 Y10.182 E1.4620 F40
G1 X9.139 Y10.196 E1.3929 F40
G1 X-0.136 Y10.198 E1.0348 F40
G1 X-0.208 Y0.880 E0.1031 F40
G1 X-0.187 Y-0.150 E0.0000 F40
G1 X0.000 Y0.000 F150
G1 X10.000 Y0.000 E1.0000 F40
G1 X0.000 Y4.000 F150
G1 X10.000 Y4.000 E1.0000 F40
G1 X0.000 Y8.000 F150
G1 X10.000 Y8.000 E1.0000 F40

; Layer 4
G1 Z8.000 F150
G1 B45.00 F100  ; Rotate extruder
G1 X-0.187 Y-0.150 F150
G1 X0.833 Y-0.172 E0.1021 F40
G1 X10.202 Y-0.129 E1.0390 F40
G1 X10.218 Y0.900 E1.0458 F40
G1 X10.157 Y10.182 E1.4620 F40
G1 X9.139 Y10.196 E1.3929 F40
G1 X-0.136 Y10.198 E1.0348 F40
G1 X-0.208 Y0.880 E0.1031 F40
G1 X-0.187 Y-0.150 E0.0000 F40
G1 X0.000 Y0.000 F150
G1 X10.000 Y0.000 E1.0000 F40
G1 X0.000 Y4.000 F150
G1 X10.000 Y4.000 E1.0000 F40
G1 X0.000 Y8.000 F150
G1 X10.000 Y8.000 E1.0000 F40

; End sequence
M104 S0     ; Turn off extruder
M140 S0     ; Turn off bed
G28 X0 Y0   ; Home X and Y
G1 Z20.0 F300
M84         ; Disable motors