; 4-Axis XYZB Gcode
; Generated from C:/Users/Jerem/Downloads/Prints/4-Axis/Slicer/bent_tube.stl
; Duet3 RepRapFirmware

; Start sequence
G28  ; Home all axes
G29  ; Auto leveling (if configured)
G1 Z5 F300  ; Lift nozzle

; Heating
M104 S200  ; Set extruder temp
M109 S200  ; Wait for extruder
M140 S60   ; Set bed temp
M190 S60   ; Wait for bed

; Layer 1
G1 Z0.200 F150
G1 X-18.951 Y-1.552 F150
G1 X-18.957 Y-1.502 E0.0050 F40
G1 X-18.971 Y-1.454 E0.0100 F40
G1 X-19.540 Y0.420 E0.2058 F40
G1 X-20.463 Y2.147 E0.3996 F40
G1 X-20.486 Y2.191 E0.4046 F40
G1 X-20.497 Y2.205 E0.4062 F40
G1 X-20.926 Y2.729 E0.4714 F40
G1 X-21.740 Y3.718 E0.5962 F40
G1 X-21.761 Y3.743 E0.5995 F40
G1 X-21.800 Y3.775 E0.6041 F40
G1 X-23.314 Y5.017 E0.7886 F40
G1 X-25.041 Y5.939 E0.9654 F40
G1 X-25.085 Y5.963 E0.9700 F40
G1 X-25.133 Y5.978 E0.9742 F40
G1 X-27.007 Y6.545 E1.1422 F40
G1 X-27.057 Y6.550 E1.1460 F40
G1 X-29.006 Y6.740 E1.3033 F40
G1 X-29.055 Y6.736 E1.3068 F40
G1 X-31.003 Y6.543 E1.4518 F40
G1 X-32.876 Y5.974 E1.5828 F40
G1 X-32.924 Y5.959 E1.5863 F40
G1 X-34.650 Y5.036 E1.7024 F40
G1 X-34.694 Y5.012 E1.7056 F40
G1 X-34.733 Y4.980 E1.7080 F40
G1 X-36.244 Y3.738 E1.8084 F40
G1 X-37.056 Y2.749 E1.8608 F40
G1 X-37.077 Y2.723 E1.8623 F40
G1 X-37.088 Y2.710 E1.8630 F40
G1 X-37.517 Y2.186 E1.8938 F40
G1 X-38.439 Y0.460 E1.9591 F40
G1 X-38.462 Y0.416 E1.9610 F40
G1 X-39.029 Y-1.456 E2.0078 F40
G1 X-39.044 Y-1.504 E2.0092 F40
G1 X-39.235 Y-3.450 E2.0372 F40
G1 X-39.240 Y-3.500 E2.0382 F40
G1 X-39.235 Y-3.550 E2.0382 F40
G1 X-39.042 Y-5.497 E2.0474 F40
G1 X-39.028 Y-5.545 E2.0470 F40
G1 X-38.460 Y-7.417 E2.0371 F40
G1 X-38.436 Y-7.461 E2.0361 F40
G1 X-37.515 Y-9.186 E2.0072 F40
G1 X-36.275 Y-10.699 E1.9589 F40
G1 X-36.243 Y-10.737 E1.9579 F40
G1 X-35.255 Y-11.551 E1.9125 F40
G1 X-35.229 Y-11.571 E1.9114 F40
G1 X-35.216 Y-11.582 E1.9109 F40
G1 X-34.692 Y-12.011 E1.8899 F40
G1 X-32.967 Y-12.934 E1.8055 F40
G1 X-32.923 Y-12.957 E1.8036 F40
G1 X-32.875 Y-12.972 E1.8008 F40
G1 X-31.003 Y-13.541 E1.6999 F40
G1 X-29.055 Y-13.735 E1.5827 F40
G1 X-29.005 Y-13.739 E1.5799 F40
G1 X-28.956 Y-13.735 E1.5764 F40
G1 X-27.008 Y-13.543 E1.4446 F40
G1 X-25.134 Y-12.976 E1.2990 F40
G1 X-25.086 Y-12.961 E1.2954 F40
G1 X-25.042 Y-12.938 E1.2912 F40
G1 X-23.315 Y-12.016 E1.1337 F40
G1 X-23.276 Y-11.984 E1.1293 F40
G1 X-21.763 Y-10.743 E0.9611 F40
G1 X-20.520 Y-9.230 E0.7837 F40
G1 X-20.488 Y-9.191 E0.7792 F40
G1 X-20.464 Y-9.147 E0.7744 F40
G1 X-19.541 Y-7.421 E0.5898 F40
G1 X-19.527 Y-7.377 E0.5853 F40
G1 X-19.007 Y-5.665 E0.4113 F40
G1 X-18.958 Y-5.503 E0.3951 F40
G1 X-18.957 Y-5.499 E0.3947 F40
G1 X-18.764 Y-3.550 E0.2007 F40
G1 X-18.759 Y-3.500 E0.1957 F40
G1 X-18.951 Y-1.552 E0.0000 F40
G1 X-39.000 Y-13.500 F150
G1 X-18.999 Y-13.500 E2.0001 F40
G1 X-39.000 Y-9.500 F150
G1 X-18.999 Y-9.500 E2.0001 F40
G1 X-39.000 Y-5.500 F150
G1 X-18.999 Y-5.500 E2.0001 F40
G1 X-39.000 Y-1.500 F150
G1 X-18.999 Y-1.500 E2.0001 F40
G1 X-39.000 Y2.500 F150
G1 X-18.999 Y2.500 E2.0001 F40

; Layer 2
G1 Z0.400 F150
G1 X-18.951 Y-1.552 F150
G1 X-18.957 Y-1.502 E0.0050 F40
G1 X-18.971 Y-1.454 E0.0100 F40
G1 X-19.540 Y0.420 E0.2058 F40
G1 X-20.463 Y2.147 E0.3996 F40
G1 X-20.486 Y2.191 E0.4046 F40
G1 X-20.497 Y2.205 E0.4062 F40
G1 X-20.926 Y2.729 E0.4714 F40
G1 X-21.740 Y3.718 E0.5962 F40
G1 X-21.761 Y3.743 E0.5995 F40
G1 X-21.800 Y3.775 E0.6041 F40
G1 X-23.314 Y5.017 E0.7886 F40
G1 X-25.041 Y5.939 E0.9654 F40
G1 X-25.085 Y5.963 E0.9700 F40
G1 X-25.133 Y5.978 E0.9742 F40
G1 X-27.007 Y6.545 E1.1422 F40
G1 X-27.057 Y6.550 E1.1460 F40
G1 X-29.006 Y6.740 E1.3033 F40
G1 X-29.055 Y6.736 E1.3068 F40
G1 X-31.003 Y6.543 E1.4518 F40
G1 X-32.876 Y5.974 E1.5828 F40
G1 X-32.924 Y5.959 E1.5863 F40
G1 X-34.650 Y5.036 E1.7024 F40
G1 X-34.694 Y5.012 E1.7056 F40
G1 X-34.733 Y4.980 E1.7080 F40
G1 X-36.244 Y3.738 E1.8084 F40
G1 X-37.056 Y2.749 E1.8608 F40
G1 X-37.077 Y2.723 E1.8623 F40
G1 X-37.088 Y2.710 E1.8630 F40
G1 X-37.517 Y2.186 E1.8938 F40
G1 X-38.439 Y0.460 E1.9591 F40
G1 X-38.462 Y0.416 E1.9610 F40
G1 X-39.029 Y-1.456 E2.0078 F40
G1 X-39.044 Y-1.504 E2.0092 F40
G1 X-39.235 Y-3.450 E2.0372 F40
G1 X-39.240 Y-3.500 E2.0382 F40
G1 X-39.235 Y-3.550 E2.0382 F40
G1 X-39.042 Y-5.497 E2.0474 F40
G1 X-39.028 Y-5.545 E2.0470 F40
G1 X-38.460 Y-7.417 E2.0371 F40
G1 X-38.436 Y-7.461 E2.0361 F40
G1 X-37.515 Y-9.186 E2.0072 F40
G1 X-36.275 Y-10.699 E1.9589 F40
G1 X-36.243 Y-10.737 E1.9579 F40
G1 X-35.255 Y-11.551 E1.9125 F40
G1 X-35.229 Y-11.571 E1.9114 F40
G1 X-35.216 Y-11.582 E1.9109 F40
G1 X-34.692 Y-12.011 E1.8899 F40
G1 X-32.967 Y-12.934 E1.8055 F40
G1 X-32.923 Y-12.957 E1.8036 F40
G1 X-32.875 Y-12.972 E1.8008 F40
G1 X-31.003 Y-13.541 E1.6999 F40
G1 X-29.055 Y-13.735 E1.5827 F40
G1 X-29.005 Y-13.739 E1.5799 F40
G1 X-28.956 Y-13.735 E1.5764 F40
G1 X-27.008 Y-13.543 E1.4446 F40
G1 X-25.134 Y-12.976 E1.2990 F40
G1 X-25.086 Y-12.961 E1.2954 F40
G1 X-25.042 Y-12.938 E1.2912 F40
G1 X-23.315 Y-12.016 E1.1337 F40
G1 X-23.276 Y-11.984 E1.1293 F40
G1 X-21.763 Y-10.743 E0.9611 F40
G1 X-20.520 Y-9.230 E0.7837 F40
G1 X-20.488 Y-9.191 E0.7792 F40
G1 X-20.464 Y-9.147 E0.7744 F40
G1 X-19.541 Y-7.421 E0.5898 F40
G1 X-19.527 Y-7.377 E0.5853 F40
G1 X-19.007 Y-5.665 E0.4113 F40
G1 X-18.958 Y-5.503 E0.3951 F40
G1 X-18.957 Y-5.499 E0.3947 F40
G1 X-18.764 Y-3.550 E0.2007 F40
G1 X-18.759 Y-3.500 E0.1957 F40
G1 X-18.951 Y-1.552 E0.0000 F40
G1 X-39.000 Y-13.500 F150
G1 X-18.999 Y-13.500 E2.0001 F40
G1 X-39.000 Y-9.500 F150
G1 X-18.999 Y-9.500 E2.0001 F40
G1 X-39.000 Y-5.500 F150
G1 X-18.999 Y-5.500 E2.0001 F40
G1 X-39.000 Y-1.500 F150
G1 X-18.999 Y-1.500 E2.0001 F40
G1 X-39.000 Y2.500 F150
G1 X-18.999 Y2.500 E2.0001 F40

; Layer 3
G1 Z0.600 F150
G1 X-18.951 Y-1.552 F150
G1 X-18.957 Y-1.502 E0.0050 F40
G1 X-18.971 Y-1.454 E0.0100 F40
G1 X-19.540 Y0.420 E0.2058 F40
G1 X-20.463 Y2.147 E0.3996 F40
G1 X-20.486 Y2.191 E0.4046 F40
G1 X-20.497 Y2.205 E0.4062 F40
G1 X-20.926 Y2.729 E0.4714 F40
G1 X-21.740 Y3.718 E0.5962 F40
G1 X-21.761 Y3.743 E0.5995 F40
G1 X-21.800 Y3.775 E0.6041 F40
G1 X-23.314 Y5.017 E0.7886 F40
G1 X-25.041 Y5.939 E0.9654 F40
G1 X-25.085 Y5.963 E0.9700 F40
G1 X-25.133 Y5.978 E0.9742 F40
G1 X-27.007 Y6.545 E1.1422 F40
G1 X-27.057 Y6.550 E1.1460 F40
G1 X-29.006 Y6.740 E1.3033 F40
G1 X-29.055 Y6.736 E1.3068 F40
G1 X-31.003 Y6.543 E1.4518 F40
G1 X-32.876 Y5.974 E1.5828 F40
G1 X-32.924 Y5.959 E1.5863 F40
G1 X-34.650 Y5.036 E1.7024 F40
G1 X-34.694 Y5.012 E1.7056 F40
G1 X-34.733 Y4.980 E1.7080 F40
G1 X-36.244 Y3.738 E1.8084 F40
G1 X-37.056 Y2.749 E1.8608 F40
G1 X-37.077 Y2.723 E1.8623 F40
G1 X-37.088 Y2.710 E1.8630 F40
G1 X-37.517 Y2.186 E1.8938 F40
G1 X-38.439 Y0.460 E1.9591 F40
G1 X-38.462 Y0.416 E1.9610 F40
G1 X-39.029 Y-1.456 E2.0078 F40
G1 X-39.044 Y-1.504 E2.0092 F40
G1 X-39.235 Y-3.450 E2.0372 F40
G1 X-39.240 Y-3.500 E2.0382 F40
G1 X-39.235 Y-3.550 E2.0382 F40
G1 X-39.042 Y-5.497 E2.0474 F40
G1 X-39.028 Y-5.545 E2.0470 F40
G1 X-38.460 Y-7.417 E2.0371 F40
G1 X-38.436 Y-7.461 E2.0361 F40
G1 X-37.515 Y-9.186 E2.0072 F40
G1 X-36.275 Y-10.699 E1.9589 F40
G1 X-36.243 Y-10.737 E1.9579 F40
G1 X-35.255 Y-11.551 E1.9125 F40
G1 X-35.229 Y-11.571 E1.9114 F40
G1 X-35.216 Y-11.582 E1.9109 F40
G1 X-34.692 Y-12.011 E1.8899 F40
G1 X-32.967 Y-12.934 E1.8055 F40
G1 X-32.923 Y-12.957 E1.8036 F40
G1 X-32.875 Y-12.972 E1.8008 F40
G1 X-31.003 Y-13.541 E1.6999 F40
G1 X-29.055 Y-13.735 E1.5827 F40
G1 X-29.005 Y-13.739 E1.5799 F40
G1 X-28.956 Y-13.735 E1.5764 F40
G1 X-27.008 Y-13.543 E1.4446 F40
G1 X-25.134 Y-12.976 E1.2990 F40
G1 X-25.086 Y-12.961 E1.2954 F40
G1 X-25.042 Y-12.938 E1.2912 F40
G1 X-23.315 Y-12.016 E1.1337 F40
G1 X-23.276 Y-11.984 E1.1293 F40
G1 X-21.763 Y-10.743 E0.9611 F40
G1 X-20.520 Y-9.230 E0.7837 F40
G1 X-20.488 Y-9.191 E0.7792 F40
G1 X-20.464 Y-9.147 E0.7744 F40
G1 X-19.541 Y-7.421 E0.5898 F40
G1 X-19.527 Y-7.377 E0.5853 F40
G1 X-19.007 Y-5.665 E0.4113 F40
G1 X-18.958 Y-5.503 E0.3951 F40
G1 X-18.957 Y-5.499 E0.3947 F40
G1 X-18.764 Y-3.550 E0.2007 F40
G1 X-18.759 Y-3.500 E0.1957 F40
G1 X-18.951 Y-1.552 E0.0000 F40
G1 X-39.000 Y-13.500 F150
G1 X-18.999 Y-13.500 E2.0001 F40
G1 X-39.000 Y-9.500 F150
G1 X-18.999 Y-9.500 E2.0001 F40
G1 X-39.000 Y-5.500 F150
G1 X-18.999 Y-5.500 E2.0001 F40
G1 X-39.000 Y-1.500 F150
G1 X-18.999 Y-1.500 E2.0001 F40
G1 X-39.000 Y2.500 F150
G1 X-18.999 Y2.500 E2.0001 F40

; Layer 4
G1 Z0.800 F150
G1 X-18.951 Y-1.552 F150
G1 X-18.957 Y-1.502 E0.0050 F40
G1 X-18.971 Y-1.454 E0.0100 F40
G1 X-19.540 Y0.420 E0.2058 F40
G1 X-20.463 Y2.147 E0.3996 F40
G1 X-20.486 Y2.191 E0.4046 F40
G1 X-20.497 Y2.205 E0.4062 F40
G1 X-20.926 Y2.729 E0.4714 F40
G1 X-21.740 Y3.718 E0.5962 F40
G1 X-21.761 Y3.743 E0.5995 F40
G1 X-21.800 Y3.775 E0.6041 F40
G1 X-23.314 Y5.017 E0.7886 F40
G1 X-25.041 Y5.939 E0.9654 F40
G1 X-25.085 Y5.963 E0.9700 F40
G1 X-25.133 Y5.978 E0.9742 F40
G1 X-27.007 Y6.545 E1.1422 F40
G1 X-27.057 Y6.550 E1.1460 F40
G1 X-29.006 Y6.740 E1.3033 F40
G1 X-29.055 Y6.736 E1.3068 F40
G1 X-31.003 Y6.543 E1.4518 F40
G1 X-32.876 Y5.974 E1.5828 F40
G1 X-32.924 Y5.959 E1.5863 F40
G1 X-34.650 Y5.036 E1.7024 F40
G1 X-34.694 Y5.012 E1.7056 F40
G1 X-34.733 Y4.980 E1.7080 F40
G1 X-36.244 Y3.738 E1.8084 F40
G1 X-37.056 Y2.749 E1.8608 F40
G1 X-37.077 Y2.723 E1.8623 F40
G1 X-37.088 Y2.710 E1.8630 F40
G1 X-37.517 Y2.186 E1.8938 F40
G1 X-38.439 Y0.460 E1.9591 F40
G1 X-38.462 Y0.416 E1.9610 F40
G1 X-39.029 Y-1.456 E2.0078 F40
G1 X-39.044 Y-1.504 E2.0092 F40
G1 X-39.235 Y-3.450 E2.0372 F40
G1 X-39.240 Y-3.500 E2.0382 F40
G1 X-39.235 Y-3.550 E2.0382 F40
G1 X-39.042 Y-5.497 E2.0474 F40
G1 X-39.028 Y-5.545 E2.0470 F40
G1 X-38.460 Y-7.417 E2.0371 F40
G1 X-38.436 Y-7.461 E2.0361 F40
G1 X-37.515 Y-9.186 E2.0072 F40
G1 X-36.275 Y-10.699 E1.9589 F40
G1 X-36.243 Y-10.737 E1.9579 F40
G1 X-35.255 Y-11.551 E1.9125 F40
G1 X-35.229 Y-11.571 E1.9114 F40
G1 X-35.216 Y-11.582 E1.9109 F40
G1 X-34.692 Y-12.011 E1.8899 F40
G1 X-32.967 Y-12.934 E1.8055 F40
G1 X-32.923 Y-12.957 E1.8036 F40
G1 X-32.875 Y-12.972 E1.8008 F40
G1 X-31.003 Y-13.541 E1.6999 F40
G1 X-29.055 Y-13.735 E1.5827 F40
G1 X-29.005 Y-13.739 E1.5799 F40
G1 X-28.956 Y-13.735 E1.5764 F40
G1 X-27.008 Y-13.543 E1.4446 F40
G1 X-25.134 Y-12.976 E1.2990 F40
G1 X-25.086 Y-12.961 E1.2954 F40
G1 X-25.042 Y-12.938 E1.2912 F40
G1 X-23.315 Y-12.016 E1.1337 F40
G1 X-23.276 Y-11.984 E1.1293 F40
G1 X-21.763 Y-10.743 E0.9611 F40
G1 X-20.520 Y-9.230 E0.7837 F40
G1 X-20.488 Y-9.191 E0.7792 F40
G1 X-20.464 Y-9.147 E0.7744 F40
G1 X-19.541 Y-7.421 E0.5898 F40
G1 X-19.527 Y-7.377 E0.5853 F40
G1 X-19.007 Y-5.665 E0.4113 F40
G1 X-18.958 Y-5.503 E0.3951 F40
G1 X-18.957 Y-5.499 E0.3947 F40
G1 X-18.764 Y-3.550 E0.2007 F40
G1 X-18.759 Y-3.500 E0.1957 F40
G1 X-18.951 Y-1.552 E0.0000 F40
G1 X-39.000 Y-13.500 F150
G1 X-18.999 Y-13.500 E2.0001 F40
G1 X-39.000 Y-9.500 F150
G1 X-18.999 Y-9.500 E2.0001 F40
G1 X-39.000 Y-5.500 F150
G1 X-18.999 Y-5.500 E2.0001 F40
G1 X-39.000 Y-1.500 F150
G1 X-18.999 Y-1.500 E2.0001 F40
G1 X-39.000 Y2.500 F150
G1 X-18.999 Y2.500 E2.0001 F40

; Layer 5
G1 Z1.000 F150
G1 X-18.951 Y-1.552 F150
G1 X-18.957 Y-1.502 E0.0050 F40
G1 X-18.971 Y-1.454 E0.0100 F40
G1 X-19.540 Y0.420 E0.2058 F40
G1 X-20.463 Y2.147 E0.3996 F40
G1 X-20.486 Y2.191 E0.4046 F40
G1 X-20.497 Y2.205 E0.4062 F40
G1 X-20.926 Y2.729 E0.4714 F40
G1 X-21.740 Y3.718 E0.5962 F40
G1 X-21.761 Y3.743 E0.5995 F40
G1 X-21.800 Y3.775 E0.6041 F40
G1 X-23.314 Y5.017 E0.7886 F40
G1 X-25.041 Y5.939 E0.9654 F40
G1 X-25.085 Y5.963 E0.9700 F40
G1 X-25.133 Y5.978 E0.9742 F40
G1 X-27.007 Y6.545 E1.1422 F40
G1 X-27.057 Y6.550 E1.1460 F40
G1 X-29.006 Y6.740 E1.3033 F40
G1 X-29.055 Y6.736 E1.3068 F40
G1 X-31.003 Y6.543 E1.4518 F40
G1 X-32.876 Y5.974 E1.5828 F40
G1 X-32.924 Y5.959 E1.5863 F40
G1 X-34.650 Y5.036 E1.7024 F40
G1 X-34.694 Y5.012 E1.7056 F40
G1 X-34.733 Y4.980 E1.7080 F40
G1 X-36.244 Y3.738 E1.8084 F40
G1 X-37.056 Y2.749 E1.8608 F40
G1 X-37.077 Y2.723 E1.8623 F40
G1 X-37.088 Y2.710 E1.8630 F40
G1 X-37.517 Y2.186 E1.8938 F40
G1 X-38.439 Y0.460 E1.9591 F40
G1 X-38.462 Y0.416 E1.9610 F40
G1 X-39.029 Y-1.456 E2.0078 F40
G1 X-39.044 Y-1.504 E2.0092 F40
G1 X-39.235 Y-3.450 E2.0372 F40
G1 X-39.240 Y-3.500 E2.0382 F40
G1 X-39.235 Y-3.550 E2.0382 F40
G1 X-39.042 Y-5.497 E2.0474 F40
G1 X-39.028 Y-5.545 E2.0470 F40
G1 X-38.460 Y-7.417 E2.0371 F40
G1 X-38.436 Y-7.461 E2.0361 F40
G1 X-37.515 Y-9.186 E2.0072 F40
G1 X-36.275 Y-10.699 E1.9589 F40
G1 X-36.243 Y-10.737 E1.9579 F40
G1 X-35.255 Y-11.551 E1.9125 F40
G1 X-35.229 Y-11.571 E1.9114 F40
G1 X-35.216 Y-11.582 E1.9109 F40
G1 X-34.692 Y-12.011 E1.8899 F40
G1 X-32.967 Y-12.934 E1.8055 F40
G1 X-32.923 Y-12.957 E1.8036 F40
G1 X-32.875 Y-12.972 E1.8008 F40
G1 X-31.003 Y-13.541 E1.6999 F40
G1 X-29.055 Y-13.735 E1.5827 F40
G1 X-29.005 Y-13.739 E1.5799 F40
G1 X-28.956 Y-13.735 E1.5764 F40
G1 X-27.008 Y-13.543 E1.4446 F40
G1 X-25.134 Y-12.976 E1.2990 F40
G1 X-25.086 Y-12.961 E1.2954 F40
G1 X-25.042 Y-12.938 E1.2912 F40
G1 X-23.315 Y-12.016 E1.1337 F40
G1 X-23.276 Y-11.984 E1.1293 F40
G1 X-21.763 Y-10.743 E0.9611 F40
G1 X-20.520 Y-9.230 E0.7837 F40
G1 X-20.488 Y-9.191 E0.7792 F40
G1 X-20.464 Y-9.147 E0.7744 F40
G1 X-19.541 Y-7.421 E0.5898 F40
G1 X-19.527 Y-7.377 E0.5853 F40
G1 X-19.007 Y-5.665 E0.4113 F40
G1 X-18.958 Y-5.503 E0.3951 F40
G1 X-18.957 Y-5.499 E0.3947 F40
G1 X-18.764 Y-3.550 E0.2007 F40
G1 X-18.759 Y-3.500 E0.1957 F40
G1 X-18.951 Y-1.552 E0.0000 F40
G1 X-39.000 Y-13.500 F150
G1 X-18.999 Y-13.500 E2.0001 F40
G1 X-39.000 Y-9.500 F150
G1 X-18.999 Y-9.500 E2.0001 F40
G1 X-39.000 Y-5.500 F150
G1 X-18.999 Y-5.500 E2.0001 F40
G1 X-39.000 Y-1.500 F150
G1 X-18.999 Y-1.500 E2.0001 F40
G1 X-39.000 Y2.500 F150
G1 X-18.999 Y2.500 E2.0001 F40

; Layer 6
G1 Z1.200 F150
G1 X-18.951 Y-1.552 F150
G1 X-18.957 Y-1.502 E0.0050 F40
G1 X-18.971 Y-1.454 E0.0100 F40
G1 X-19.540 Y0.420 E0.2058 F40
G1 X-20.463 Y2.147 E0.3996 F40
G1 X-20.486 Y2.191 E0.4046 F40
G1 X-20.497 Y2.205 E0.4062 F40
G1 X-20.926 Y2.729 E0.4714 F40
G1 X-21.740 Y3.718 E0.5962 F40
G1 X-21.761 Y3.743 E0.5995 F40
G1 X-21.800 Y3.775 E0.6041 F40
G1 X-23.314 Y5.017 E0.7886 F40
G1 X-25.041 Y5.939 E0.9654 F40
G1 X-25.085 Y5.963 E0.9700 F40
G1 X-25.133 Y5.978 E0.9742 F40
G1 X-27.007 Y6.545 E1.1422 F40
G1 X-27.057 Y6.550 E1.1460 F40
G1 X-29.006 Y6.740 E1.3033 F40
G1 X-29.055 Y6.736 E1.3068 F40
G1 X-31.003 Y6.543 E1.4518 F40
G1 X-32.876 Y5.974 E1.5828 F40
G1 X-32.924 Y5.959 E1.5863 F40
G1 X-34.650 Y5.036 E1.7024 F40
G1 X-34.694 Y5.012 E1.7056 F40
G1 X-34.733 Y4.980 E1.7080 F40
G1 X-36.244 Y3.738 E1.8084 F40
G1 X-37.056 Y2.749 E1.8608 F40
G1 X-37.077 Y2.723 E1.8623 F40
G1 X-37.088 Y2.710 E1.8630 F40
G1 X-37.517 Y2.186 E1.8938 F40
G1 X-38.439 Y0.460 E1.9591 F40
G1 X-38.462 Y0.416 E1.9610 F40
G1 X-39.029 Y-1.456 E2.0078 F40
G1 X-39.044 Y-1.504 E2.0092 F40
G1 X-39.235 Y-3.450 E2.0372 F40
G1 X-39.240 Y-3.500 E2.0382 F40
G1 X-39.235 Y-3.550 E2.0382 F40
G1 X-39.042 Y-5.497 E2.0474 F40
G1 X-39.028 Y-5.545 E2.0470 F40
G1 X-38.460 Y-7.417 E2.0371 F40
G1 X-38.436 Y-7.461 E2.0361 F40
G1 X-37.515 Y-9.186 E2.0072 F40
G1 X-36.275 Y-10.699 E1.9589 F40
G1 X-36.243 Y-10.737 E1.9579 F40
G1 X-35.255 Y-11.551 E1.9125 F40
G1 X-35.229 Y-11.571 E1.9114 F40
G1 X-35.216 Y-11.582 E1.9109 F40
G1 X-34.692 Y-12.011 E1.8899 F40
G1 X-32.967 Y-12.934 E1.8055 F40
G1 X-32.923 Y-12.957 E1.8036 F40
G1 X-32.875 Y-12.972 E1.8008 F40
G1 X-31.003 Y-13.541 E1.6999 F40
G1 X-29.055 Y-13.735 E1.5827 F40
G1 X-29.005 Y-13.739 E1.5799 F40
G1 X-28.956 Y-13.735 E1.5764 F40
G1 X-27.008 Y-13.543 E1.4446 F40
G1 X-25.134 Y-12.976 E1.2990 F40
G1 X-25.086 Y-12.961 E1.2954 F40
G1 X-25.042 Y-12.938 E1.2912 F40
G1 X-23.315 Y-12.016 E1.1337 F40
G1 X-23.276 Y-11.984 E1.1293 F40
G1 X-21.763 Y-10.743 E0.9611 F40
G1 X-20.520 Y-9.230 E0.7837 F40
G1 X-20.488 Y-9.191 E0.7792 F40
G1 X-20.464 Y-9.147 E0.7744 F40
G1 X-19.541 Y-7.421 E0.5898 F40
G1 X-19.527 Y-7.377 E0.5853 F40
G1 X-19.007 Y-5.665 E0.4113 F40
G1 X-18.958 Y-5.503 E0.3951 F40
G1 X-18.957 Y-5.499 E0.3947 F40
G1 X-18.764 Y-3.550 E0.2007 F40
G1 X-18.759 Y-3.500 E0.1957 F40
G1 X-18.951 Y-1.552 E0.0000 F40
G1 X-39.000 Y-13.500 F150
G1 X-18.999 Y-13.500 E2.0001 F40
G1 X-39.000 Y-9.500 F150
G1 X-18.999 Y-9.500 E2.0001 F40
G1 X-39.000 Y-5.500 F150
G1 X-18.999 Y-5.500 E2.0001 F40
G1 X-39.000 Y-1.500 F150
G1 X-18.999 Y-1.500 E2.0001 F40
G1 X-39.000 Y2.500 F150
G1 X-18.999 Y2.500 E2.0001 F40

; Layer 7
G1 Z1.400 F150
G1 X-18.951 Y-1.552 F150
G1 X-18.957 Y-1.502 E0.0050 F40
G1 X-18.971 Y-1.454 E0.0100 F40
G1 X-19.540 Y0.420 E0.2058 F40
G1 X-20.463 Y2.147 E0.3996 F40
G1 X-20.486 Y2.191 E0.4046 F40
G1 X-20.497 Y2.205 E0.4062 F40
G1 X-20.926 Y2.729 E0.4714 F40
G1 X-21.740 Y3.718 E0.5962 F40
G1 X-21.761 Y3.743 E0.5995 F40
G1 X-21.800 Y3.775 E0.6041 F40
G1 X-23.314 Y5.017 E0.7886 F40
G1 X-25.041 Y5.939 E0.9654 F40
G1 X-25.085 Y5.963 E0.9700 F40
G1 X-25.133 Y5.978 E0.9742 F40
G1 X-27.007 Y6.545 E1.1422 F40
G1 X-27.057 Y6.550 E1.1460 F40
G1 X-29.006 Y6.740 E1.3033 F40
G1 X-29.055 Y6.736 E1.3068 F40
G1 X-31.003 Y6.543 E1.4518 F40
G1 X-32.876 Y5.974 E1.5828 F40
G1 X-32.924 Y5.959 E1.5863 F40
G1 X-34.650 Y5.036 E1.7024 F40
G1 X-34.694 Y5.012 E1.7056 F40
G1 X-34.733 Y4.980 E1.7080 F40
G1 X-36.244 Y3.738 E1.8084 F40
G1 X-37.056 Y2.749 E1.8608 F40
G1 X-37.077 Y2.723 E1.8623 F40
G1 X-37.088 Y2.710 E1.8630 F40
G1 X-37.517 Y2.186 E1.8938 F40
G1 X-38.439 Y0.460 E1.9591 F40
G1 X-38.462 Y0.416 E1.9610 F40
G1 X-39.029 Y-1.456 E2.0078 F40
G1 X-39.044 Y-1.504 E2.0092 F40
G1 X-39.235 Y-3.450 E2.0372 F40
G1 X-39.240 Y-3.500 E2.0382 F40
G1 X-39.235 Y-3.550 E2.0382 F40
G1 X-39.042 Y-5.497 E2.0474 F40
G1 X-39.028 Y-5.545 E2.0470 F40
G1 X-38.460 Y-7.417 E2.0371 F40
G1 X-38.436 Y-7.461 E2.0361 F40
G1 X-37.515 Y-9.186 E2.0072 F40
G1 X-36.275 Y-10.699 E1.9589 F40
G1 X-36.243 Y-10.737 E1.9579 F40
G1 X-35.255 Y-11.551 E1.9125 F40
G1 X-35.229 Y-11.571 E1.9114 F40
G1 X-35.216 Y-11.582 E1.9109 F40
G1 X-34.692 Y-12.011 E1.8899 F40
G1 X-32.967 Y-12.934 E1.8055 F40
G1 X-32.923 Y-12.957 E1.8036 F40
G1 X-32.875 Y-12.972 E1.8008 F40
G1 X-31.003 Y-13.541 E1.6999 F40
G1 X-29.055 Y-13.735 E1.5827 F40
G1 X-29.005 Y-13.739 E1.5799 F40
G1 X-28.956 Y-13.735 E1.5764 F40
G1 X-27.008 Y-13.543 E1.4446 F40
G1 X-25.134 Y-12.976 E1.2990 F40
G1 X-25.086 Y-12.961 E1.2954 F40
G1 X-25.042 Y-12.938 E1.2912 F40
G1 X-23.315 Y-12.016 E1.1337 F40
G1 X-23.276 Y-11.984 E1.1293 F40
G1 X-21.763 Y-10.743 E0.9611 F40
G1 X-20.520 Y-9.230 E0.7837 F40
G1 X-20.488 Y-9.191 E0.7792 F40
G1 X-20.464 Y-9.147 E0.7744 F40
G1 X-19.541 Y-7.421 E0.5898 F40
G1 X-19.527 Y-7.377 E0.5853 F40
G1 X-19.007 Y-5.665 E0.4113 F40
G1 X-18.958 Y-5.503 E0.3951 F40
G1 X-18.957 Y-5.499 E0.3947 F40
G1 X-18.764 Y-3.550 E0.2007 F40
G1 X-18.759 Y-3.500 E0.1957 F40
G1 X-18.951 Y-1.552 E0.0000 F40
G1 X-39.000 Y-13.500 F150
G1 X-18.999 Y-13.500 E2.0001 F40
G1 X-39.000 Y-9.500 F150
G1 X-18.999 Y-9.500 E2.0001 F40
G1 X-39.000 Y-5.500 F150
G1 X-18.999 Y-5.500 E2.0001 F40
G1 X-39.000 Y-1.500 F150
G1 X-18.999 Y-1.500 E2.0001 F40
G1 X-39.000 Y2.500 F150
G1 X-18.999 Y2.500 E2.0001 F40

; Layer 8
G1 Z1.600 F150
G1 X-18.951 Y-1.552 F150
G1 X-18.957 Y-1.502 E0.0050 F40
G1 X-18.971 Y-1.454 E0.0100 F40
G1 X-19.540 Y0.420 E0.2058 F40
G1 X-20.463 Y2.147 E0.3996 F40
G1 X-20.486 Y2.191 E0.4046 F40
G1 X-20.497 Y2.205 E0.4062 F40
G1 X-20.926 Y2.729 E0.4714 F40
G1 X-21.740 Y3.718 E0.5962 F40
G1 X-21.761 Y3.743 E0.5995 F40
G1 X-21.800 Y3.775 E0.6041 F40
G1 X-23.314 Y5.017 E0.7886 F40
G1 X-25.041 Y5.939 E0.9654 F40
G1 X-25.085 Y5.963 E0.9700 F40
G1 X-25.133 Y5.978 E0.9742 F40
G1 X-27.007 Y6.545 E1.1422 F40
G1 X-27.057 Y6.550 E1.1460 F40
G1 X-29.006 Y6.740 E1.3033 F40
G1 X-29.055 Y6.736 E1.3068 F40
G1 X-31.003 Y6.543 E1.4518 F40
G1 X-32.876 Y5.974 E1.5828 F40
G1 X-32.924 Y5.959 E1.5863 F40
G1 X-34.650 Y5.036 E1.7024 F40
G1 X-34.694 Y5.012 E1.7056 F40
G1 X-34.733 Y4.980 E1.7080 F40
G1 X-36.244 Y3.738 E1.8084 F40
G1 X-37.056 Y2.749 E1.8608 F40
G1 X-37.077 Y2.723 E1.8623 F40
G1 X-37.088 Y2.710 E1.8630 F40
G1 X-37.517 Y2.186 E1.8938 F40
G1 X-38.439 Y0.460 E1.9591 F40
G1 X-38.462 Y0.416 E1.9610 F40
G1 X-39.029 Y-1.456 E2.0078 F40
G1 X-39.044 Y-1.504 E2.0092 F40
G1 X-39.235 Y-3.450 E2.0372 F40
G1 X-39.240 Y-3.500 E2.0382 F40
G1 X-39.235 Y-3.550 E2.0382 F40
G1 X-39.042 Y-5.497 E2.0474 F40
G1 X-39.028 Y-5.545 E2.0470 F40
G1 X-38.460 Y-7.417 E2.0371 F40
G1 X-38.436 Y-7.461 E2.0361 F40
G1 X-37.515 Y-9.186 E2.0072 F40
G1 X-36.275 Y-10.699 E1.9589 F40
G1 X-36.243 Y-10.737 E1.9579 F40
G1 X-35.255 Y-11.551 E1.9125 F40
G1 X-35.229 Y-11.571 E1.9114 F40
G1 X-35.216 Y-11.582 E1.9109 F40
G1 X-34.692 Y-12.011 E1.8899 F40
G1 X-32.967 Y-12.934 E1.8055 F40
G1 X-32.923 Y-12.957 E1.8036 F40
G1 X-32.875 Y-12.972 E1.8008 F40
G1 X-31.003 Y-13.541 E1.6999 F40
G1 X-29.055 Y-13.735 E1.5827 F40
G1 X-29.005 Y-13.739 E1.5799 F40
G1 X-28.956 Y-13.735 E1.5764 F40
G1 X-27.008 Y-13.543 E1.4446 F40
G1 X-25.134 Y-12.976 E1.2990 F40
G1 X-25.086 Y-12.961 E1.2954 F40
G1 X-25.042 Y-12.938 E1.2912 F40
G1 X-23.315 Y-12.016 E1.1337 F40
G1 X-23.276 Y-11.984 E1.1293 F40
G1 X-21.763 Y-10.743 E0.9611 F40
G1 X-20.520 Y-9.230 E0.7837 F40
G1 X-20.488 Y-9.191 E0.7792 F40
G1 X-20.464 Y-9.147 E0.7744 F40
G1 X-19.541 Y-7.421 E0.5898 F40
G1 X-19.527 Y-7.377 E0.5853 F40
G1 X-19.007 Y-5.665 E0.4113 F40
G1 X-18.958 Y-5.503 E0.3951 F40
G1 X-18.957 Y-5.499 E0.3947 F40
G1 X-18.764 Y-3.550 E0.2007 F40
G1 X-18.759 Y-3.500 E0.1957 F40
G1 X-18.951 Y-1.552 E0.0000 F40
G1 X-39.000 Y-13.500 F150
G1 X-18.999 Y-13.500 E2.0001 F40
G1 X-39.000 Y-9.500 F150
G1 X-18.999 Y-9.500 E2.0001 F40
G1 X-39.000 Y-5.500 F150
G1 X-18.999 Y-5.500 E2.0001 F40
G1 X-39.000 Y-1.500 F150
G1 X-18.999 Y-1.500 E2.0001 F40
G1 X-39.000 Y2.500 F150
G1 X-18.999 Y2.500 E2.0001 F40

; Layer 9
G1 Z1.800 F150
G1 X-18.951 Y-1.552 F150
G1 X-18.957 Y-1.502 E0.0050 F40
G1 X-18.971 Y-1.454 E0.0100 F40
G1 X-19.540 Y0.420 E0.2058 F40
G1 X-20.463 Y2.147 E0.3996 F40
G1 X-20.486 Y2.191 E0.4046 F40
G1 X-20.497 Y2.205 E0.4062 F40
G1 X-20.926 Y2.729 E0.4714 F40
G1 X-21.740 Y3.718 E0.5962 F40
G1 X-21.761 Y3.743 E0.5995 F40
G1 X-21.800 Y3.775 E0.6041 F40
G1 X-23.314 Y5.017 E0.7886 F40
G1 X-25.041 Y5.939 E0.9654 F40
G1 X-25.085 Y5.963 E0.9700 F40
G1 X-25.133 Y5.978 E0.9742 F40
G1 X-27.007 Y6.545 E1.1422 F40
G1 X-27.057 Y6.550 E1.1460 F40
G1 X-29.006 Y6.740 E1.3033 F40
G1 X-29.055 Y6.736 E1.3068 F40
G1 X-31.003 Y6.543 E1.4518 F40
G1 X-32.876 Y5.974 E1.5828 F40
G1 X-32.924 Y5.959 E1.5863 F40
G1 X-34.650 Y5.036 E1.7024 F40
G1 X-34.694 Y5.012 E1.7056 F40
G1 X-34.733 Y4.980 E1.7080 F40
G1 X-36.244 Y3.738 E1.8084 F40
G1 X-37.056 Y2.749 E1.8608 F40
G1 X-37.077 Y2.723 E1.8623 F40
G1 X-37.088 Y2.710 E1.8630 F40
G1 X-37.517 Y2.186 E1.8938 F40
G1 X-38.439 Y0.460 E1.9591 F40
G1 X-38.462 Y0.416 E1.9610 F40
G1 X-39.029 Y-1.456 E2.0078 F40
G1 X-39.044 Y-1.504 E2.0092 F40
G1 X-39.235 Y-3.450 E2.0372 F40
G1 X-39.240 Y-3.500 E2.0382 F40
G1 X-39.235 Y-3.550 E2.0382 F40
G1 X-39.042 Y-5.497 E2.0474 F40
G1 X-39.028 Y-5.545 E2.0470 F40
G1 X-38.460 Y-7.417 E2.0371 F40
G1 X-38.436 Y-7.461 E2.0361 F40
G1 X-37.515 Y-9.186 E2.0072 F40
G1 X-36.275 Y-10.699 E1.9589 F40
G1 X-36.243 Y-10.737 E1.9579 F40
G1 X-35.255 Y-11.551 E1.9125 F40
G1 X-35.229 Y-11.571 E1.9114 F40
G1 X-35.216 Y-11.582 E1.9109 F40
G1 X-34.692 Y-12.011 E1.8899 F40
G1 X-32.967 Y-12.934 E1.8055 F40
G1 X-32.923 Y-12.957 E1.8036 F40
G1 X-32.875 Y-12.972 E1.8008 F40
G1 X-31.003 Y-13.541 E1.6999 F40
G1 X-29.055 Y-13.735 E1.5827 F40
G1 X-29.005 Y-13.739 E1.5799 F40
G1 X-28.956 Y-13.735 E1.5764 F40
G1 X-27.008 Y-13.543 E1.4446 F40
G1 X-25.134 Y-12.976 E1.2990 F40
G1 X-25.086 Y-12.961 E1.2954 F40
G1 X-25.042 Y-12.938 E1.2912 F40
G1 X-23.315 Y-12.016 E1.1337 F40
G1 X-23.276 Y-11.984 E1.1293 F40
G1 X-21.763 Y-10.743 E0.9611 F40
G1 X-20.520 Y-9.230 E0.7837 F40
G1 X-20.488 Y-9.191 E0.7792 F40
G1 X-20.464 Y-9.147 E0.7744 F40
G1 X-19.541 Y-7.421 E0.5898 F40
G1 X-19.527 Y-7.377 E0.5853 F40
G1 X-19.007 Y-5.665 E0.4113 F40
G1 X-18.958 Y-5.503 E0.3951 F40
G1 X-18.957 Y-5.499 E0.3947 F40
G1 X-18.764 Y-3.550 E0.2007 F40
G1 X-18.759 Y-3.500 E0.1957 F40
G1 X-18.951 Y-1.552 E0.0000 F40
G1 X-39.000 Y-13.500 F150
G1 X-18.999 Y-13.500 E2.0001 F40
G1 X-39.000 Y-9.500 F150
G1 X-18.999 Y-9.500 E2.0001 F40
G1 X-39.000 Y-5.500 F150
G1 X-18.999 Y-5.500 E2.0001 F40
G1 X-39.000 Y-1.500 F150
G1 X-18.999 Y-1.500 E2.0001 F40
G1 X-39.000 Y2.500 F150
G1 X-18.999 Y2.500 E2.0001 F40

; Layer 10
G1 Z2.000 F150
G1 X-18.951 Y-1.552 F150
G1 X-18.957 Y-1.502 E0.0050 F40
G1 X-18.971 Y-1.454 E0.0100 F40
G1 X-19.540 Y0.420 E0.2058 F40
G1 X-20.463 Y2.147 E0.3996 F40
G1 X-20.486 Y2.191 E0.4046 F40
G1 X-20.497 Y2.205 E0.4062 F40
G1 X-20.926 Y2.729 E0.4714 F40
G1 X-21.740 Y3.718 E0.5962 F40
G1 X-21.761 Y3.743 E0.5995 F40
G1 X-21.800 Y3.775 E0.6041 F40
G1 X-23.314 Y5.017 E0.7886 F40
G1 X-25.041 Y5.939 E0.9654 F40
G1 X-25.085 Y5.963 E0.9700 F40
G1 X-25.133 Y5.978 E0.9742 F40
G1 X-27.007 Y6.545 E1.1422 F40
G1 X-27.057 Y6.550 E1.1460 F40
G1 X-29.006 Y6.740 E1.3033 F40
G1 X-29.055 Y6.736 E1.3068 F40
G1 X-31.003 Y6.543 E1.4518 F40
G1 X-32.876 Y5.974 E1.5828 F40
G1 X-32.924 Y5.959 E1.5863 F40
G1 X-34.650 Y5.036 E1.7024 F40
G1 X-34.694 Y5.012 E1.7056 F40
G1 X-34.733 Y4.980 E1.7080 F40
G1 X-36.244 Y3.738 E1.8084 F40
G1 X-37.056 Y2.749 E1.8608 F40
G1 X-37.077 Y2.723 E1.8623 F40
G1 X-37.088 Y2.710 E1.8630 F40
G1 X-37.517 Y2.186 E1.8938 F40
G1 X-38.439 Y0.460 E1.9591 F40
G1 X-38.462 Y0.416 E1.9610 F40
G1 X-39.029 Y-1.456 E2.0078 F40
G1 X-39.044 Y-1.504 E2.0092 F40
G1 X-39.235 Y-3.450 E2.0372 F40
G1 X-39.240 Y-3.500 E2.0382 F40
G1 X-39.235 Y-3.550 E2.0382 F40
G1 X-39.042 Y-5.497 E2.0474 F40
G1 X-39.028 Y-5.545 E2.0470 F40
G1 X-38.460 Y-7.417 E2.0371 F40
G1 X-38.436 Y-7.461 E2.0361 F40
G1 X-37.515 Y-9.186 E2.0072 F40
G1 X-36.275 Y-10.699 E1.9589 F40
G1 X-36.243 Y-10.737 E1.9579 F40
G1 X-35.255 Y-11.551 E1.9125 F40
G1 X-35.229 Y-11.571 E1.9114 F40
G1 X-35.216 Y-11.582 E1.9109 F40
G1 X-34.692 Y-12.011 E1.8899 F40
G1 X-32.967 Y-12.934 E1.8055 F40
G1 X-32.923 Y-12.957 E1.8036 F40
G1 X-32.875 Y-12.972 E1.8008 F40
G1 X-31.003 Y-13.541 E1.6999 F40
G1 X-29.055 Y-13.735 E1.5827 F40
G1 X-29.005 Y-13.739 E1.5799 F40
G1 X-28.956 Y-13.735 E1.5764 F40
G1 X-27.008 Y-13.543 E1.4446 F40
G1 X-25.134 Y-12.976 E1.2990 F40
G1 X-25.086 Y-12.961 E1.2954 F40
G1 X-25.042 Y-12.938 E1.2912 F40
G1 X-23.315 Y-12.016 E1.1337 F40
G1 X-23.276 Y-11.984 E1.1293 F40
G1 X-21.763 Y-10.743 E0.9611 F40
G1 X-20.520 Y-9.230 E0.7837 F40
G1 X-20.488 Y-9.191 E0.7792 F40
G1 X-20.464 Y-9.147 E0.7744 F40
G1 X-19.541 Y-7.421 E0.5898 F40
G1 X-19.527 Y-7.377 E0.5853 F40
G1 X-19.007 Y-5.665 E0.4113 F40
G1 X-18.958 Y-5.503 E0.3951 F40
G1 X-18.957 Y-5.499 E0.3947 F40
G1 X-18.764 Y-3.550 E0.2007 F40
G1 X-18.759 Y-3.500 E0.1957 F40
G1 X-18.951 Y-1.552 E0.0000 F40
G1 X-39.000 Y-13.500 F150
G1 X-18.999 Y-13.500 E2.0001 F40
G1 X-39.000 Y-9.500 F150
G1 X-18.999 Y-9.500 E2.0001 F40
G1 X-39.000 Y-5.500 F150
G1 X-18.999 Y-5.500 E2.0001 F40
G1 X-39.000 Y-1.500 F150
G1 X-18.999 Y-1.500 E2.0001 F40
G1 X-39.000 Y2.500 F150
G1 X-18.999 Y2.500 E2.0001 F40

; Layer 11
G1 Z2.200 F150
G1 X-18.951 Y-1.552 F150
G1 X-18.957 Y-1.502 E0.0050 F40
G1 X-18.971 Y-1.454 E0.0100 F40
G1 X-19.540 Y0.420 E0.2058 F40
G1 X-20.463 Y2.147 E0.3996 F40
G1 X-20.486 Y2.191 E0.4046 F40
G1 X-20.497 Y2.205 E0.4062 F40
G1 X-20.926 Y2.729 E0.4714 F40
G1 X-21.740 Y3.718 E0.5962 F40
G1 X-21.761 Y3.743 E0.5995 F40
G1 X-21.800 Y3.775 E0.6041 F40
G1 X-23.314 Y5.017 E0.7886 F40
G1 X-25.041 Y5.939 E0.9654 F40
G1 X-25.085 Y5.963 E0.9700 F40
G1 X-25.133 Y5.978 E0.9742 F40
G1 X-27.007 Y6.545 E1.1422 F40
G1 X-27.057 Y6.550 E1.1460 F40
G1 X-29.006 Y6.740 E1.3033 F40
G1 X-29.055 Y6.736 E1.3068 F40
G1 X-31.003 Y6.543 E1.4518 F40
G1 X-32.876 Y5.974 E1.5828 F40
G1 X-32.924 Y5.959 E1.5863 F40
G1 X-34.650 Y5.036 E1.7024 F40
G1 X-34.694 Y5.012 E1.7056 F40
G1 X-34.733 Y4.980 E1.7080 F40
G1 X-36.244 Y3.738 E1.8084 F40
G1 X-37.056 Y2.749 E1.8608 F40
G1 X-37.077 Y2.723 E1.8623 F40
G1 X-37.088 Y2.710 E1.8630 F40
G1 X-37.517 Y2.186 E1.8938 F40
G1 X-38.439 Y0.460 E1.9591 F40
G1 X-38.462 Y0.416 E1.9610 F40
G1 X-39.029 Y-1.456 E2.0078 F40
G1 X-39.044 Y-1.504 E2.0092 F40
G1 X-39.235 Y-3.450 E2.0372 F40
G1 X-39.240 Y-3.500 E2.0382 F40
G1 X-39.235 Y-3.550 E2.0382 F40
G1 X-39.042 Y-5.497 E2.0474 F40
G1 X-39.028 Y-5.545 E2.0470 F40
G1 X-38.460 Y-7.417 E2.0371 F40
G1 X-38.436 Y-7.461 E2.0361 F40
G1 X-37.515 Y-9.186 E2.0072 F40
G1 X-36.275 Y-10.699 E1.9589 F40
G1 X-36.243 Y-10.737 E1.9579 F40
G1 X-35.255 Y-11.551 E1.9125 F40
G1 X-35.229 Y-11.571 E1.9114 F40
G1 X-35.216 Y-11.582 E1.9109 F40
G1 X-34.692 Y-12.011 E1.8899 F40
G1 X-32.967 Y-12.934 E1.8055 F40
G1 X-32.923 Y-12.957 E1.8036 F40
G1 X-32.875 Y-12.972 E1.8008 F40
G1 X-31.003 Y-13.541 E1.6999 F40
G1 X-29.055 Y-13.735 E1.5827 F40
G1 X-29.005 Y-13.739 E1.5799 F40
G1 X-28.956 Y-13.735 E1.5764 F40
G1 X-27.008 Y-13.543 E1.4446 F40
G1 X-25.134 Y-12.976 E1.2990 F40
G1 X-25.086 Y-12.961 E1.2954 F40
G1 X-25.042 Y-12.938 E1.2912 F40
G1 X-23.315 Y-12.016 E1.1337 F40
G1 X-23.276 Y-11.984 E1.1293 F40
G1 X-21.763 Y-10.743 E0.9611 F40
G1 X-20.520 Y-9.230 E0.7837 F40
G1 X-20.488 Y-9.191 E0.7792 F40
G1 X-20.464 Y-9.147 E0.7744 F40
G1 X-19.541 Y-7.421 E0.5898 F40
G1 X-19.527 Y-7.377 E0.5853 F40
G1 X-19.007 Y-5.665 E0.4113 F40
G1 X-18.958 Y-5.503 E0.3951 F40
G1 X-18.957 Y-5.499 E0.3947 F40
G1 X-18.764 Y-3.550 E0.2007 F40
G1 X-18.759 Y-3.500 E0.1957 F40
G1 X-18.951 Y-1.552 E0.0000 F40
G1 X-39.000 Y-13.500 F150
G1 X-18.999 Y-13.500 E2.0001 F40
G1 X-39.000 Y-9.500 F150
G1 X-18.999 Y-9.500 E2.0001 F40
G1 X-39.000 Y-5.500 F150
G1 X-18.999 Y-5.500 E2.0001 F40
G1 X-39.000 Y-1.500 F150
G1 X-18.999 Y-1.500 E2.0001 F40
G1 X-39.000 Y2.500 F150
G1 X-18.999 Y2.500 E2.0001 F40

; Layer 12
G1 Z2.400 F150
G1 B0.11 F100  ; Rotate extruder
G1 X-18.951 Y-1.552 F150
G1 X-18.957 Y-1.502 E0.0050 F40
G1 X-18.971 Y-1.454 E0.0100 F40
G1 X-19.540 Y0.420 E0.2058 F40
G1 X-20.463 Y2.147 E0.3996 F40
G1 X-20.486 Y2.191 E0.4046 F40
G1 X-20.497 Y2.205 E0.4062 F40
G1 X-20.926 Y2.729 E0.4714 F40
G1 X-21.740 Y3.718 E0.5962 F40
G1 X-21.761 Y3.743 E0.5995 F40
G1 X-21.800 Y3.775 E0.6041 F40
G1 X-23.314 Y5.017 E0.7886 F40
G1 X-25.041 Y5.939 E0.9654 F40
G1 X-25.085 Y5.963 E0.9700 F40
G1 X-25.133 Y5.978 E0.9742 F40
G1 X-27.007 Y6.545 E1.1422 F40
G1 X-27.057 Y6.550 E1.1460 F40
G1 X-29.006 Y6.740 E1.3033 F40
G1 X-29.055 Y6.736 E1.3068 F40
G1 X-31.003 Y6.543 E1.4518 F40
G1 X-32.876 Y5.974 E1.5828 F40
G1 X-32.924 Y5.959 E1.5863 F40
G1 X-34.650 Y5.036 E1.7024 F40
G1 X-34.694 Y5.012 E1.7056 F40
G1 X-34.733 Y4.980 E1.7080 F40
G1 X-36.244 Y3.738 E1.8084 F40
G1 X-37.056 Y2.749 E1.8608 F40
G1 X-37.077 Y2.723 E1.8623 F40
G1 X-37.088 Y2.710 E1.8630 F40
G1 X-37.517 Y2.186 E1.8938 F40
G1 X-38.439 Y0.460 E1.9591 F40
G1 X-38.462 Y0.416 E1.9610 F40
G1 X-39.029 Y-1.456 E2.0078 F40
G1 X-39.044 Y-1.504 E2.0092 F40
G1 X-39.235 Y-3.450 E2.0372 F40
G1 X-39.240 Y-3.500 E2.0382 F40
G1 X-39.235 Y-3.550 E2.0382 F40
G1 X-39.042 Y-5.497 E2.0474 F40
G1 X-39.028 Y-5.545 E2.0470 F40
G1 X-38.460 Y-7.417 E2.0371 F40
G1 X-38.436 Y-7.461 E2.0361 F40
G1 X-37.515 Y-9.186 E2.0072 F40
G1 X-36.275 Y-10.699 E1.9589 F40
G1 X-36.243 Y-10.737 E1.9579 F40
G1 X-35.255 Y-11.551 E1.9125 F40
G1 X-35.229 Y-11.571 E1.9114 F40
G1 X-35.216 Y-11.582 E1.9109 F40
G1 X-34.692 Y-12.011 E1.8899 F40
G1 X-32.967 Y-12.934 E1.8055 F40
G1 X-32.923 Y-12.957 E1.8036 F40
G1 X-32.875 Y-12.972 E1.8008 F40
G1 X-31.003 Y-13.541 E1.6999 F40
G1 X-29.055 Y-13.735 E1.5827 F40
G1 X-29.005 Y-13.739 E1.5799 F40
G1 X-28.956 Y-13.735 E1.5764 F40
G1 X-27.008 Y-13.543 E1.4446 F40
G1 X-25.134 Y-12.976 E1.2990 F40
G1 X-25.086 Y-12.961 E1.2954 F40
G1 X-25.042 Y-12.938 E1.2912 F40
G1 X-23.315 Y-12.016 E1.1337 F40
G1 X-23.276 Y-11.984 E1.1293 F40
G1 X-21.763 Y-10.743 E0.9611 F40
G1 X-20.520 Y-9.230 E0.7837 F40
G1 X-20.488 Y-9.191 E0.7792 F40
G1 X-20.464 Y-9.147 E0.7744 F40
G1 X-19.541 Y-7.421 E0.5898 F40
G1 X-19.527 Y-7.377 E0.5853 F40
G1 X-19.007 Y-5.665 E0.4113 F40
G1 X-18.958 Y-5.503 E0.3951 F40
G1 X-18.957 Y-5.499 E0.3947 F40
G1 X-18.764 Y-3.550 E0.2007 F40
G1 X-18.759 Y-3.500 E0.1957 F40
G1 X-18.951 Y-1.552 E0.0000 F40
G1 X-39.000 Y-13.500 F150
G1 X-18.999 Y-13.500 E2.0001 F40
G1 X-39.000 Y-9.500 F150
G1 X-18.999 Y-9.500 E2.0001 F40
G1 X-39.000 Y-5.500 F150
G1 X-18.999 Y-5.500 E2.0001 F40
G1 X-39.000 Y-1.500 F150
G1 X-18.999 Y-1.500 E2.0001 F40
G1 X-39.000 Y2.500 F150
G1 X-18.999 Y2.500 E2.0001 F40

; Layer 13
G1 Z2.600 F150
G1 X-18.951 Y-1.552 F150
G1 X-18.957 Y-1.502 E0.0050 F40
G1 X-18.971 Y-1.454 E0.0100 F40
G1 X-19.540 Y0.420 E0.2058 F40
G1 X-20.463 Y2.147 E0.3996 F40
G1 X-20.486 Y2.191 E0.4046 F40
G1 X-20.497 Y2.205 E0.4062 F40
G1 X-20.926 Y2.729 E0.4714 F40
G1 X-21.740 Y3.718 E0.5962 F40
G1 X-21.761 Y3.743 E0.5995 F40
G1 X-21.800 Y3.775 E0.6041 F40
G1 X-23.314 Y5.017 E0.7886 F40
G1 X-25.041 Y5.939 E0.9654 F40
G1 X-25.085 Y5.963 E0.9700 F40
G1 X-25.133 Y5.978 E0.9742 F40
G1 X-27.007 Y6.545 E1.1422 F40
G1 X-27.057 Y6.550 E1.1460 F40
G1 X-29.006 Y6.740 E1.3033 F40
G1 X-29.055 Y6.736 E1.3068 F40
G1 X-31.003 Y6.543 E1.4518 F40
G1 X-32.876 Y5.974 E1.5828 F40
G1 X-32.924 Y5.959 E1.5863 F40
G1 X-34.650 Y5.036 E1.7024 F40
G1 X-34.694 Y5.012 E1.7056 F40
G1 X-34.733 Y4.980 E1.7080 F40
G1 X-36.244 Y3.738 E1.8084 F40
G1 X-37.056 Y2.749 E1.8608 F40
G1 X-37.077 Y2.723 E1.8623 F40
G1 X-37.088 Y2.710 E1.8630 F40
G1 X-37.517 Y2.186 E1.8938 F40
G1 X-38.439 Y0.460 E1.9591 F40
G1 X-38.462 Y0.416 E1.9610 F40
G1 X-39.029 Y-1.456 E2.0078 F40
G1 X-39.044 Y-1.504 E2.0092 F40
G1 X-39.235 Y-3.450 E2.0372 F40
G1 X-39.240 Y-3.500 E2.0382 F40
G1 X-39.235 Y-3.550 E2.0382 F40
G1 X-39.042 Y-5.497 E2.0474 F40
G1 X-39.028 Y-5.545 E2.0470 F40
G1 X-38.460 Y-7.417 E2.0371 F40
G1 X-38.436 Y-7.461 E2.0361 F40
G1 X-37.515 Y-9.186 E2.0072 F40
G1 X-36.275 Y-10.699 E1.9589 F40
G1 X-36.243 Y-10.737 E1.9579 F40
G1 X-35.255 Y-11.551 E1.9125 F40
G1 X-35.229 Y-11.571 E1.9114 F40
G1 X-35.216 Y-11.582 E1.9109 F40
G1 X-34.692 Y-12.011 E1.8899 F40
G1 X-32.967 Y-12.934 E1.8055 F40
G1 X-32.923 Y-12.957 E1.8036 F40
G1 X-32.875 Y-12.972 E1.8008 F40
G1 X-31.003 Y-13.541 E1.6999 F40
G1 X-29.055 Y-13.735 E1.5827 F40
G1 X-29.005 Y-13.739 E1.5799 F40
G1 X-28.956 Y-13.735 E1.5764 F40
G1 X-27.008 Y-13.543 E1.4446 F40
G1 X-25.134 Y-12.976 E1.2990 F40
G1 X-25.086 Y-12.961 E1.2954 F40
G1 X-25.042 Y-12.938 E1.2912 F40
G1 X-23.315 Y-12.016 E1.1337 F40
G1 X-23.276 Y-11.984 E1.1293 F40
G1 X-21.763 Y-10.743 E0.9611 F40
G1 X-20.520 Y-9.230 E0.7837 F40
G1 X-20.488 Y-9.191 E0.7792 F40
G1 X-20.464 Y-9.147 E0.7744 F40
G1 X-19.541 Y-7.421 E0.5898 F40
G1 X-19.527 Y-7.377 E0.5853 F40
G1 X-19.007 Y-5.665 E0.4113 F40
G1 X-18.958 Y-5.503 E0.3951 F40
G1 X-18.957 Y-5.499 E0.3947 F40
G1 X-18.764 Y-3.550 E0.2007 F40
G1 X-18.759 Y-3.500 E0.1957 F40
G1 X-18.951 Y-1.552 E0.0000 F40
G1 X-39.000 Y-13.500 F150
G1 X-18.999 Y-13.500 E2.0001 F40
G1 X-39.000 Y-9.500 F150
G1 X-18.999 Y-9.500 E2.0001 F40
G1 X-39.000 Y-5.500 F150
G1 X-18.999 Y-5.500 E2.0001 F40
G1 X-39.000 Y-1.500 F150
G1 X-18.999 Y-1.500 E2.0001 F40
G1 X-39.000 Y2.500 F150
G1 X-18.999 Y2.500 E2.0001 F40

; Layer 14
G1 Z2.800 F150
G1 X-18.951 Y-1.552 F150
G1 X-18.957 Y-1.502 E0.0050 F40
G1 X-18.971 Y-1.454 E0.0100 F40
G1 X-19.540 Y0.420 E0.2058 F40
G1 X-20.463 Y2.147 E0.3996 F40
G1 X-20.486 Y2.191 E0.4046 F40
G1 X-20.497 Y2.205 E0.4062 F40
G1 X-20.926 Y2.729 E0.4714 F40
G1 X-21.740 Y3.718 E0.5962 F40
G1 X-21.761 Y3.743 E0.5995 F40
G1 X-21.800 Y3.775 E0.6041 F40
G1 X-23.314 Y5.017 E0.7886 F40
G1 X-25.041 Y5.939 E0.9654 F40
G1 X-25.085 Y5.963 E0.9700 F40
G1 X-25.133 Y5.978 E0.9742 F40
G1 X-27.007 Y6.545 E1.1422 F40
G1 X-27.057 Y6.550 E1.1460 F40
G1 X-29.006 Y6.740 E1.3033 F40
G1 X-29.055 Y6.736 E1.3068 F40
G1 X-31.003 Y6.543 E1.4518 F40
G1 X-32.876 Y5.974 E1.5828 F40
G1 X-32.924 Y5.959 E1.5863 F40
G1 X-34.650 Y5.036 E1.7024 F40
G1 X-34.694 Y5.012 E1.7056 F40
G1 X-34.733 Y4.980 E1.7080 F40
G1 X-36.244 Y3.738 E1.8084 F40
G1 X-37.056 Y2.749 E1.8608 F40
G1 X-37.077 Y2.723 E1.8623 F40
G1 X-37.088 Y2.710 E1.8630 F40
G1 X-37.517 Y2.186 E1.8938 F40
G1 X-38.439 Y0.460 E1.9591 F40
G1 X-38.462 Y0.416 E1.9610 F40
G1 X-39.029 Y-1.456 E2.0078 F40
G1 X-39.044 Y-1.504 E2.0092 F40
G1 X-39.235 Y-3.450 E2.0372 F40
G1 X-39.240 Y-3.500 E2.0382 F40
G1 X-39.235 Y-3.550 E2.0382 F40
G1 X-39.042 Y-5.497 E2.0474 F40
G1 X-39.028 Y-5.545 E2.0470 F40
G1 X-38.460 Y-7.417 E2.0371 F40
G1 X-38.436 Y-7.461 E2.0361 F40
G1 X-37.515 Y-9.186 E2.0072 F40
G1 X-36.275 Y-10.699 E1.9589 F40
G1 X-36.243 Y-10.737 E1.9579 F40
G1 X-35.255 Y-11.551 E1.9125 F40
G1 X-35.229 Y-11.571 E1.9114 F40
G1 X-35.216 Y-11.582 E1.9109 F40
G1 X-34.692 Y-12.011 E1.8899 F40
G1 X-32.967 Y-12.934 E1.8055 F40
G1 X-32.923 Y-12.957 E1.8036 F40
G1 X-32.875 Y-12.972 E1.8008 F40
G1 X-31.003 Y-13.541 E1.6999 F40
G1 X-29.055 Y-13.735 E1.5827 F40
G1 X-29.005 Y-13.739 E1.5799 F40
G1 X-28.956 Y-13.735 E1.5764 F40
G1 X-27.008 Y-13.543 E1.4446 F40
G1 X-25.134 Y-12.976 E1.2990 F40
G1 X-25.086 Y-12.961 E1.2954 F40
G1 X-25.042 Y-12.938 E1.2912 F40
G1 X-23.315 Y-12.016 E1.1337 F40
G1 X-23.276 Y-11.984 E1.1293 F40
G1 X-21.763 Y-10.743 E0.9611 F40
G1 X-20.520 Y-9.230 E0.7837 F40
G1 X-20.488 Y-9.191 E0.7792 F40
G1 X-20.464 Y-9.147 E0.7744 F40
G1 X-19.541 Y-7.421 E0.5898 F40
G1 X-19.527 Y-7.377 E0.5853 F40
G1 X-19.007 Y-5.665 E0.4113 F40
G1 X-18.958 Y-5.503 E0.3951 F40
G1 X-18.957 Y-5.499 E0.3947 F40
G1 X-18.764 Y-3.550 E0.2007 F40
G1 X-18.759 Y-3.500 E0.1957 F40
G1 X-18.951 Y-1.552 E0.0000 F40
G1 X-39.000 Y-13.500 F150
G1 X-18.999 Y-13.500 E2.0001 F40
G1 X-39.000 Y-9.500 F150
G1 X-18.999 Y-9.500 E2.0001 F40
G1 X-39.000 Y-5.500 F150
G1 X-18.999 Y-5.500 E2.0001 F40
G1 X-39.000 Y-1.500 F150
G1 X-18.999 Y-1.500 E2.0001 F40
G1 X-39.000 Y2.500 F150
G1 X-18.999 Y2.500 E2.0001 F40

; Layer 15
G1 Z3.000 F150
G1 X-18.951 Y-1.552 F150
G1 X-18.957 Y-1.502 E0.0050 F40
G1 X-18.971 Y-1.454 E0.0100 F40
G1 X-19.540 Y0.420 E0.2058 F40
G1 X-20.463 Y2.147 E0.3996 F40
G1 X-20.486 Y2.191 E0.4046 F40
G1 X-20.497 Y2.205 E0.4062 F40
G1 X-20.926 Y2.729 E0.4714 F40
G1 X-21.740 Y3.718 E0.5962 F40
G1 X-21.761 Y3.743 E0.5995 F40
G1 X-21.800 Y3.775 E0.6041 F40
G1 X-23.314 Y5.017 E0.7886 F40
G1 X-25.041 Y5.939 E0.9654 F40
G1 X-25.085 Y5.963 E0.9700 F40
G1 X-25.133 Y5.978 E0.9742 F40
G1 X-27.007 Y6.545 E1.1422 F40
G1 X-27.057 Y6.550 E1.1460 F40
G1 X-29.006 Y6.740 E1.3033 F40
G1 X-29.055 Y6.736 E1.3068 F40
G1 X-31.003 Y6.543 E1.4518 F40
G1 X-32.876 Y5.974 E1.5828 F40
G1 X-32.924 Y5.959 E1.5863 F40
G1 X-34.650 Y5.036 E1.7024 F40
G1 X-34.694 Y5.012 E1.7056 F40
G1 X-34.733 Y4.980 E1.7080 F40
G1 X-36.244 Y3.738 E1.8084 F40
G1 X-37.056 Y2.749 E1.8608 F40
G1 X-37.077 Y2.723 E1.8623 F40
G1 X-37.088 Y2.710 E1.8630 F40
G1 X-37.517 Y2.186 E1.8938 F40
G1 X-38.439 Y0.460 E1.9591 F40
G1 X-38.462 Y0.416 E1.9610 F40
G1 X-39.029 Y-1.456 E2.0078 F40
G1 X-39.044 Y-1.504 E2.0092 F40
G1 X-39.235 Y-3.450 E2.0372 F40
G1 X-39.240 Y-3.500 E2.0382 F40
G1 X-39.235 Y-3.550 E2.0382 F40
G1 X-39.042 Y-5.497 E2.0474 F40
G1 X-39.028 Y-5.545 E2.0470 F40
G1 X-38.460 Y-7.417 E2.0371 F40
G1 X-38.436 Y-7.461 E2.0361 F40
G1 X-37.515 Y-9.186 E2.0072 F40
G1 X-36.275 Y-10.699 E1.9589 F40
G1 X-36.243 Y-10.737 E1.9579 F40
G1 X-35.255 Y-11.551 E1.9125 F40
G1 X-35.229 Y-11.571 E1.9114 F40
G1 X-35.216 Y-11.582 E1.9109 F40
G1 X-34.692 Y-12.011 E1.8899 F40
G1 X-32.967 Y-12.934 E1.8055 F40
G1 X-32.923 Y-12.957 E1.8036 F40
G1 X-32.875 Y-12.972 E1.8008 F40
G1 X-31.003 Y-13.541 E1.6999 F40
G1 X-29.055 Y-13.735 E1.5827 F40
G1 X-29.005 Y-13.739 E1.5799 F40
G1 X-28.956 Y-13.735 E1.5764 F40
G1 X-27.008 Y-13.543 E1.4446 F40
G1 X-25.134 Y-12.976 E1.2990 F40
G1 X-25.086 Y-12.961 E1.2954 F40
G1 X-25.042 Y-12.938 E1.2912 F40
G1 X-23.315 Y-12.016 E1.1337 F40
G1 X-23.276 Y-11.984 E1.1293 F40
G1 X-21.763 Y-10.743 E0.9611 F40
G1 X-20.520 Y-9.230 E0.7837 F40
G1 X-20.488 Y-9.191 E0.7792 F40
G1 X-20.464 Y-9.147 E0.7744 F40
G1 X-19.541 Y-7.421 E0.5898 F40
G1 X-19.527 Y-7.377 E0.5853 F40
G1 X-19.007 Y-5.665 E0.4113 F40
G1 X-18.958 Y-5.503 E0.3951 F40
G1 X-18.957 Y-5.499 E0.3947 F40
G1 X-18.764 Y-3.550 E0.2007 F40
G1 X-18.759 Y-3.500 E0.1957 F40
G1 X-18.951 Y-1.552 E0.0000 F40
G1 X-39.000 Y-13.500 F150
G1 X-18.999 Y-13.500 E2.0001 F40
G1 X-39.000 Y-9.500 F150
G1 X-18.999 Y-9.500 E2.0001 F40
G1 X-39.000 Y-5.500 F150
G1 X-18.999 Y-5.500 E2.0001 F40
G1 X-39.000 Y-1.500 F150
G1 X-18.999 Y-1.500 E2.0001 F40
G1 X-39.000 Y2.500 F150
G1 X-18.999 Y2.500 E2.0001 F40

; Layer 16
G1 Z3.200 F150
G1 X-18.951 Y-1.552 F150
G1 X-18.957 Y-1.502 E0.0050 F40
G1 X-18.971 Y-1.454 E0.0100 F40
G1 X-19.540 Y0.420 E0.2058 F40
G1 X-20.463 Y2.147 E0.3996 F40
G1 X-20.486 Y2.191 E0.4046 F40
G1 X-20.497 Y2.205 E0.4062 F40
G1 X-20.926 Y2.729 E0.4714 F40
G1 X-21.740 Y3.718 E0.5962 F40
G1 X-21.761 Y3.743 E0.5995 F40
G1 X-21.800 Y3.775 E0.6041 F40
G1 X-23.314 Y5.017 E0.7886 F40
G1 X-25.041 Y5.939 E0.9654 F40
G1 X-25.085 Y5.963 E0.9700 F40
G1 X-25.133 Y5.978 E0.9742 F40
G1 X-27.007 Y6.545 E1.1422 F40
G1 X-27.057 Y6.550 E1.1460 F40
G1 X-29.006 Y6.740 E1.3033 F40
G1 X-29.055 Y6.736 E1.3068 F40
G1 X-31.003 Y6.543 E1.4518 F40
G1 X-32.876 Y5.974 E1.5828 F40
G1 X-32.924 Y5.959 E1.5863 F40
G1 X-34.650 Y5.036 E1.7024 F40
G1 X-34.694 Y5.012 E1.7056 F40
G1 X-34.733 Y4.980 E1.7080 F40
G1 X-36.244 Y3.738 E1.8084 F40
G1 X-37.056 Y2.749 E1.8608 F40
G1 X-37.077 Y2.723 E1.8623 F40
G1 X-37.088 Y2.710 E1.8630 F40
G1 X-37.517 Y2.186 E1.8938 F40
G1 X-38.439 Y0.460 E1.9591 F40
G1 X-38.462 Y0.416 E1.9610 F40
G1 X-39.029 Y-1.456 E2.0078 F40
G1 X-39.044 Y-1.504 E2.0092 F40
G1 X-39.235 Y-3.450 E2.0372 F40
G1 X-39.240 Y-3.500 E2.0382 F40
G1 X-39.235 Y-3.550 E2.0382 F40
G1 X-39.042 Y-5.497 E2.0474 F40
G1 X-39.028 Y-5.545 E2.0470 F40
G1 X-38.460 Y-7.417 E2.0371 F40
G1 X-38.436 Y-7.461 E2.0361 F40
G1 X-37.515 Y-9.186 E2.0072 F40
G1 X-36.275 Y-10.699 E1.9589 F40
G1 X-36.243 Y-10.737 E1.9579 F40
G1 X-35.255 Y-11.551 E1.9125 F40
G1 X-35.229 Y-11.571 E1.9114 F40
G1 X-35.216 Y-11.582 E1.9109 F40
G1 X-34.692 Y-12.011 E1.8899 F40
G1 X-32.967 Y-12.934 E1.8055 F40
G1 X-32.923 Y-12.957 E1.8036 F40
G1 X-32.875 Y-12.972 E1.8008 F40
G1 X-31.003 Y-13.541 E1.6999 F40
G1 X-29.055 Y-13.735 E1.5827 F40
G1 X-29.005 Y-13.739 E1.5799 F40
G1 X-28.956 Y-13.735 E1.5764 F40
G1 X-27.008 Y-13.543 E1.4446 F40
G1 X-25.134 Y-12.976 E1.2990 F40
G1 X-25.086 Y-12.961 E1.2954 F40
G1 X-25.042 Y-12.938 E1.2912 F40
G1 X-23.315 Y-12.016 E1.1337 F40
G1 X-23.276 Y-11.984 E1.1293 F40
G1 X-21.763 Y-10.743 E0.9611 F40
G1 X-20.520 Y-9.230 E0.7837 F40
G1 X-20.488 Y-9.191 E0.7792 F40
G1 X-20.464 Y-9.147 E0.7744 F40
G1 X-19.541 Y-7.421 E0.5898 F40
G1 X-19.527 Y-7.377 E0.5853 F40
G1 X-19.007 Y-5.665 E0.4113 F40
G1 X-18.958 Y-5.503 E0.3951 F40
G1 X-18.957 Y-5.499 E0.3947 F40
G1 X-18.764 Y-3.550 E0.2007 F40
G1 X-18.759 Y-3.500 E0.1957 F40
G1 X-18.951 Y-1.552 E0.0000 F40
G1 X-39.000 Y-13.500 F150
G1 X-18.999 Y-13.500 E2.0001 F40
G1 X-39.000 Y-9.500 F150
G1 X-18.999 Y-9.500 E2.0001 F40
G1 X-39.000 Y-5.500 F150
G1 X-18.999 Y-5.500 E2.0001 F40
G1 X-39.000 Y-1.500 F150
G1 X-18.999 Y-1.500 E2.0001 F40
G1 X-39.000 Y2.500 F150
G1 X-18.999 Y2.500 E2.0001 F40

; Layer 17
G1 Z3.400 F150
G1 B0.24 F100  ; Rotate extruder
G1 X-18.951 Y-1.552 F150
G1 X-18.957 Y-1.502 E0.0050 F40
G1 X-18.971 Y-1.454 E0.0100 F40
G1 X-19.540 Y0.420 E0.2058 F40
G1 X-20.463 Y2.147 E0.3996 F40
G1 X-20.486 Y2.191 E0.4046 F40
G1 X-20.497 Y2.205 E0.4062 F40
G1 X-20.926 Y2.729 E0.4714 F40
G1 X-21.740 Y3.718 E0.5962 F40
G1 X-21.761 Y3.743 E0.5995 F40
G1 X-21.800 Y3.775 E0.6041 F40
G1 X-23.314 Y5.017 E0.7886 F40
G1 X-25.041 Y5.939 E0.9654 F40
G1 X-25.085 Y5.963 E0.9700 F40
G1 X-25.133 Y5.978 E0.9742 F40
G1 X-27.007 Y6.545 E1.1422 F40
G1 X-27.057 Y6.550 E1.1460 F40
G1 X-29.006 Y6.740 E1.3033 F40
G1 X-29.055 Y6.736 E1.3068 F40
G1 X-31.003 Y6.543 E1.4518 F40
G1 X-32.876 Y5.974 E1.5828 F40
G1 X-32.924 Y5.959 E1.5863 F40
G1 X-34.650 Y5.036 E1.7024 F40
G1 X-34.694 Y5.012 E1.7056 F40
G1 X-34.733 Y4.980 E1.7080 F40
G1 X-36.244 Y3.738 E1.8084 F40
G1 X-37.056 Y2.749 E1.8608 F40
G1 X-37.077 Y2.723 E1.8623 F40
G1 X-37.088 Y2.710 E1.8630 F40
G1 X-37.517 Y2.186 E1.8938 F40
G1 X-38.439 Y0.460 E1.9591 F40
G1 X-38.462 Y0.416 E1.9610 F40
G1 X-39.029 Y-1.456 E2.0078 F40
G1 X-39.044 Y-1.504 E2.0092 F40
G1 X-39.235 Y-3.450 E2.0372 F40
G1 X-39.240 Y-3.500 E2.0382 F40
G1 X-39.235 Y-3.550 E2.0382 F40
G1 X-39.042 Y-5.497 E2.0474 F40
G1 X-39.028 Y-5.545 E2.0470 F40
G1 X-38.460 Y-7.417 E2.0371 F40
G1 X-38.436 Y-7.461 E2.0361 F40
G1 X-37.515 Y-9.186 E2.0072 F40
G1 X-36.275 Y-10.699 E1.9589 F40
G1 X-36.243 Y-10.737 E1.9579 F40
G1 X-35.255 Y-11.551 E1.9125 F40
G1 X-35.229 Y-11.571 E1.9114 F40
G1 X-35.216 Y-11.582 E1.9109 F40
G1 X-34.692 Y-12.011 E1.8899 F40
G1 X-32.967 Y-12.934 E1.8055 F40
G1 X-32.923 Y-12.957 E1.8036 F40
G1 X-32.875 Y-12.972 E1.8008 F40
G1 X-31.003 Y-13.541 E1.6999 F40
G1 X-29.055 Y-13.735 E1.5827 F40
G1 X-29.005 Y-13.739 E1.5799 F40
G1 X-28.956 Y-13.735 E1.5764 F40
G1 X-27.008 Y-13.543 E1.4446 F40
G1 X-25.134 Y-12.976 E1.2990 F40
G1 X-25.086 Y-12.961 E1.2954 F40
G1 X-25.042 Y-12.938 E1.2912 F40
G1 X-23.315 Y-12.016 E1.1337 F40
G1 X-23.276 Y-11.984 E1.1293 F40
G1 X-21.763 Y-10.743 E0.9611 F40
G1 X-20.520 Y-9.230 E0.7837 F40
G1 X-20.488 Y-9.191 E0.7792 F40
G1 X-20.464 Y-9.147 E0.7744 F40
G1 X-19.541 Y-7.421 E0.5898 F40
G1 X-19.527 Y-7.377 E0.5853 F40
G1 X-19.007 Y-5.665 E0.4113 F40
G1 X-18.958 Y-5.503 E0.3951 F40
G1 X-18.957 Y-5.499 E0.3947 F40
G1 X-18.764 Y-3.550 E0.2007 F40
G1 X-18.759 Y-3.500 E0.1957 F40
G1 X-18.951 Y-1.552 E0.0000 F40
G1 X-39.000 Y-13.500 F150
G1 X-18.999 Y-13.500 E2.0001 F40
G1 X-39.000 Y-9.500 F150
G1 X-18.999 Y-9.500 E2.0001 F40
G1 X-39.000 Y-5.500 F150
G1 X-18.999 Y-5.500 E2.0001 F40
G1 X-39.000 Y-1.500 F150
G1 X-18.999 Y-1.500 E2.0001 F40
G1 X-39.000 Y2.500 F150
G1 X-18.999 Y2.500 E2.0001 F40

; Layer 18
G1 Z3.600 F150
G1 X-18.951 Y-1.552 F150
G1 X-18.957 Y-1.502 E0.0050 F40
G1 X-18.971 Y-1.454 E0.0100 F40
G1 X-19.540 Y0.420 E0.2058 F40
G1 X-20.463 Y2.147 E0.3996 F40
G1 X-20.486 Y2.191 E0.4046 F40
G1 X-20.497 Y2.205 E0.4062 F40
G1 X-20.926 Y2.729 E0.4714 F40
G1 X-21.740 Y3.718 E0.5962 F40
G1 X-21.761 Y3.743 E0.5995 F40
G1 X-21.800 Y3.775 E0.6041 F40
G1 X-23.314 Y5.017 E0.7886 F40
G1 X-25.041 Y5.939 E0.9654 F40
G1 X-25.085 Y5.963 E0.9700 F40
G1 X-25.133 Y5.978 E0.9742 F40
G1 X-27.007 Y6.545 E1.1422 F40
G1 X-27.057 Y6.550 E1.1460 F40
G1 X-29.006 Y6.740 E1.3033 F40
G1 X-29.055 Y6.736 E1.3068 F40
G1 X-31.003 Y6.543 E1.4518 F40
G1 X-32.876 Y5.974 E1.5828 F40
G1 X-32.924 Y5.959 E1.5863 F40
G1 X-34.650 Y5.036 E1.7024 F40
G1 X-34.694 Y5.012 E1.7056 F40
G1 X-34.733 Y4.980 E1.7080 F40
G1 X-36.244 Y3.738 E1.8084 F40
G1 X-37.056 Y2.749 E1.8608 F40
G1 X-37.077 Y2.723 E1.8623 F40
G1 X-37.088 Y2.710 E1.8630 F40
G1 X-37.517 Y2.186 E1.8938 F40
G1 X-38.439 Y0.460 E1.9591 F40
G1 X-38.462 Y0.416 E1.9610 F40
G1 X-39.029 Y-1.456 E2.0078 F40
G1 X-39.044 Y-1.504 E2.0092 F40
G1 X-39.235 Y-3.450 E2.0372 F40
G1 X-39.240 Y-3.500 E2.0382 F40
G1 X-39.235 Y-3.550 E2.0382 F40
G1 X-39.042 Y-5.497 E2.0474 F40
G1 X-39.028 Y-5.545 E2.0470 F40
G1 X-38.460 Y-7.417 E2.0371 F40
G1 X-38.436 Y-7.461 E2.0361 F40
G1 X-37.515 Y-9.186 E2.0072 F40
G1 X-36.275 Y-10.699 E1.9589 F40
G1 X-36.243 Y-10.737 E1.9579 F40
G1 X-35.255 Y-11.551 E1.9125 F40
G1 X-35.229 Y-11.571 E1.9114 F40
G1 X-35.216 Y-11.582 E1.9109 F40
G1 X-34.692 Y-12.011 E1.8899 F40
G1 X-32.967 Y-12.934 E1.8055 F40
G1 X-32.923 Y-12.957 E1.8036 F40
G1 X-32.875 Y-12.972 E1.8008 F40
G1 X-31.003 Y-13.541 E1.6999 F40
G1 X-29.055 Y-13.735 E1.5827 F40
G1 X-29.005 Y-13.739 E1.5799 F40
G1 X-28.956 Y-13.735 E1.5764 F40
G1 X-27.008 Y-13.543 E1.4446 F40
G1 X-25.134 Y-12.976 E1.2990 F40
G1 X-25.086 Y-12.961 E1.2954 F40
G1 X-25.042 Y-12.938 E1.2912 F40
G1 X-23.315 Y-12.016 E1.1337 F40
G1 X-23.276 Y-11.984 E1.1293 F40
G1 X-21.763 Y-10.743 E0.9611 F40
G1 X-20.520 Y-9.230 E0.7837 F40
G1 X-20.488 Y-9.191 E0.7792 F40
G1 X-20.464 Y-9.147 E0.7744 F40
G1 X-19.541 Y-7.421 E0.5898 F40
G1 X-19.527 Y-7.377 E0.5853 F40
G1 X-19.007 Y-5.665 E0.4113 F40
G1 X-18.958 Y-5.503 E0.3951 F40
G1 X-18.957 Y-5.499 E0.3947 F40
G1 X-18.764 Y-3.550 E0.2007 F40
G1 X-18.759 Y-3.500 E0.1957 F40
G1 X-18.951 Y-1.552 E0.0000 F40
G1 X-39.000 Y-13.500 F150
G1 X-18.999 Y-13.500 E2.0001 F40
G1 X-39.000 Y-9.500 F150
G1 X-18.999 Y-9.500 E2.0001 F40
G1 X-39.000 Y-5.500 F150
G1 X-18.999 Y-5.500 E2.0001 F40
G1 X-39.000 Y-1.500 F150
G1 X-18.999 Y-1.500 E2.0001 F40
G1 X-39.000 Y2.500 F150
G1 X-18.999 Y2.500 E2.0001 F40

; Layer 19
G1 Z3.800 F150
G1 X-18.951 Y-1.552 F150
G1 X-18.957 Y-1.502 E0.0050 F40
G1 X-18.971 Y-1.454 E0.0100 F40
G1 X-19.540 Y0.420 E0.2058 F40
G1 X-20.463 Y2.147 E0.3996 F40
G1 X-20.486 Y2.191 E0.4046 F40
G1 X-20.497 Y2.205 E0.4062 F40
G1 X-20.926 Y2.729 E0.4714 F40
G1 X-21.740 Y3.718 E0.5962 F40
G1 X-21.761 Y3.743 E0.5995 F40
G1 X-21.800 Y3.775 E0.6041 F40
G1 X-23.314 Y5.017 E0.7886 F40
G1 X-25.041 Y5.939 E0.9654 F40
G1 X-25.085 Y5.963 E0.9700 F40
G1 X-25.133 Y5.978 E0.9742 F40
G1 X-27.007 Y6.545 E1.1422 F40
G1 X-27.057 Y6.550 E1.1460 F40
G1 X-29.006 Y6.740 E1.3033 F40
G1 X-29.055 Y6.736 E1.3068 F40
G1 X-31.003 Y6.543 E1.4518 F40
G1 X-32.876 Y5.974 E1.5828 F40
G1 X-32.924 Y5.959 E1.5863 F40
G1 X-34.650 Y5.036 E1.7024 F40
G1 X-34.694 Y5.012 E1.7056 F40
G1 X-34.733 Y4.980 E1.7080 F40
G1 X-36.244 Y3.738 E1.8084 F40
G1 X-37.056 Y2.749 E1.8608 F40
G1 X-37.077 Y2.723 E1.8623 F40
G1 X-37.088 Y2.710 E1.8630 F40
G1 X-37.517 Y2.186 E1.8938 F40
G1 X-38.439 Y0.460 E1.9591 F40
G1 X-38.462 Y0.416 E1.9610 F40
G1 X-39.029 Y-1.456 E2.0078 F40
G1 X-39.044 Y-1.504 E2.0092 F40
G1 X-39.235 Y-3.450 E2.0372 F40
G1 X-39.240 Y-3.500 E2.0382 F40
G1 X-39.235 Y-3.550 E2.0382 F40
G1 X-39.042 Y-5.497 E2.0474 F40
G1 X-39.028 Y-5.545 E2.0470 F40
G1 X-38.460 Y-7.417 E2.0371 F40
G1 X-38.436 Y-7.461 E2.0361 F40
G1 X-37.515 Y-9.186 E2.0072 F40
G1 X-36.275 Y-10.699 E1.9589 F40
G1 X-36.243 Y-10.737 E1.9579 F40
G1 X-35.255 Y-11.551 E1.9125 F40
G1 X-35.229 Y-11.571 E1.9114 F40
G1 X-35.216 Y-11.582 E1.9109 F40
G1 X-34.692 Y-12.011 E1.8899 F40
G1 X-32.967 Y-12.934 E1.8055 F40
G1 X-32.923 Y-12.957 E1.8036 F40
G1 X-32.875 Y-12.972 E1.8008 F40
G1 X-31.003 Y-13.541 E1.6999 F40
G1 X-29.055 Y-13.735 E1.5827 F40
G1 X-29.005 Y-13.739 E1.5799 F40
G1 X-28.956 Y-13.735 E1.5764 F40
G1 X-27.008 Y-13.543 E1.4446 F40
G1 X-25.134 Y-12.976 E1.2990 F40
G1 X-25.086 Y-12.961 E1.2954 F40
G1 X-25.042 Y-12.938 E1.2912 F40
G1 X-23.315 Y-12.016 E1.1337 F40
G1 X-23.276 Y-11.984 E1.1293 F40
G1 X-21.763 Y-10.743 E0.9611 F40
G1 X-20.520 Y-9.230 E0.7837 F40
G1 X-20.488 Y-9.191 E0.7792 F40
G1 X-20.464 Y-9.147 E0.7744 F40
G1 X-19.541 Y-7.421 E0.5898 F40
G1 X-19.527 Y-7.377 E0.5853 F40
G1 X-19.007 Y-5.665 E0.4113 F40
G1 X-18.958 Y-5.503 E0.3951 F40
G1 X-18.957 Y-5.499 E0.3947 F40
G1 X-18.764 Y-3.550 E0.2007 F40
G1 X-18.759 Y-3.500 E0.1957 F40
G1 X-18.951 Y-1.552 E0.0000 F40
G1 X-39.000 Y-13.500 F150
G1 X-18.999 Y-13.500 E2.0001 F40
G1 X-39.000 Y-9.500 F150
G1 X-18.999 Y-9.500 E2.0001 F40
G1 X-39.000 Y-5.500 F150
G1 X-18.999 Y-5.500 E2.0001 F40
G1 X-39.000 Y-1.500 F150
G1 X-18.999 Y-1.500 E2.0001 F40
G1 X-39.000 Y2.500 F150
G1 X-18.999 Y2.500 E2.0001 F40

; Layer 20
G1 Z4.000 F150
G1 X-18.951 Y-1.552 F150
G1 X-18.957 Y-1.502 E0.0050 F40
G1 X-18.971 Y-1.454 E0.0100 F40
G1 X-19.540 Y0.420 E0.2058 F40
G1 X-20.463 Y2.147 E0.3996 F40
G1 X-20.486 Y2.191 E0.4046 F40
G1 X-20.497 Y2.205 E0.4062 F40
G1 X-20.926 Y2.729 E0.4714 F40
G1 X-21.740 Y3.718 E0.5962 F40
G1 X-21.761 Y3.743 E0.5995 F40
G1 X-21.800 Y3.775 E0.6041 F40
G1 X-23.314 Y5.017 E0.7886 F40
G1 X-25.041 Y5.939 E0.9654 F40
G1 X-25.085 Y5.963 E0.9700 F40
G1 X-25.133 Y5.978 E0.9742 F40
G1 X-27.007 Y6.545 E1.1422 F40
G1 X-27.057 Y6.550 E1.1460 F40
G1 X-29.006 Y6.740 E1.3033 F40
G1 X-29.055 Y6.736 E1.3068 F40
G1 X-31.003 Y6.543 E1.4518 F40
G1 X-32.876 Y5.974 E1.5828 F40
G1 X-32.924 Y5.959 E1.5863 F40
G1 X-34.650 Y5.036 E1.7024 F40
G1 X-34.694 Y5.012 E1.7056 F40
G1 X-34.733 Y4.980 E1.7080 F40
G1 X-36.244 Y3.738 E1.8084 F40
G1 X-37.056 Y2.749 E1.8608 F40
G1 X-37.077 Y2.723 E1.8623 F40
G1 X-37.088 Y2.710 E1.8630 F40
G1 X-37.517 Y2.186 E1.8938 F40
G1 X-38.439 Y0.460 E1.9591 F40
G1 X-38.462 Y0.416 E1.9610 F40
G1 X-39.029 Y-1.456 E2.0078 F40
G1 X-39.044 Y-1.504 E2.0092 F40
G1 X-39.235 Y-3.450 E2.0372 F40
G1 X-39.240 Y-3.500 E2.0382 F40
G1 X-39.235 Y-3.550 E2.0382 F40
G1 X-39.042 Y-5.497 E2.0474 F40
G1 X-39.028 Y-5.545 E2.0470 F40
G1 X-38.460 Y-7.417 E2.0371 F40
G1 X-38.436 Y-7.461 E2.0361 F40
G1 X-37.515 Y-9.186 E2.0072 F40
G1 X-36.275 Y-10.699 E1.9589 F40
G1 X-36.243 Y-10.737 E1.9579 F40
G1 X-35.255 Y-11.551 E1.9125 F40
G1 X-35.229 Y-11.571 E1.9114 F40
G1 X-35.216 Y-11.582 E1.9109 F40
G1 X-34.692 Y-12.011 E1.8899 F40
G1 X-32.967 Y-12.934 E1.8055 F40
G1 X-32.923 Y-12.957 E1.8036 F40
G1 X-32.875 Y-12.972 E1.8008 F40
G1 X-31.003 Y-13.541 E1.6999 F40
G1 X-29.055 Y-13.735 E1.5827 F40
G1 X-29.005 Y-13.739 E1.5799 F40
G1 X-28.956 Y-13.735 E1.5764 F40
G1 X-27.008 Y-13.543 E1.4446 F40
G1 X-25.134 Y-12.976 E1.2990 F40
G1 X-25.086 Y-12.961 E1.2954 F40
G1 X-25.042 Y-12.938 E1.2912 F40
G1 X-23.315 Y-12.016 E1.1337 F40
G1 X-23.276 Y-11.984 E1.1293 F40
G1 X-21.763 Y-10.743 E0.9611 F40
G1 X-20.520 Y-9.230 E0.7837 F40
G1 X-20.488 Y-9.191 E0.7792 F40
G1 X-20.464 Y-9.147 E0.7744 F40
G1 X-19.541 Y-7.421 E0.5898 F40
G1 X-19.527 Y-7.377 E0.5853 F40
G1 X-19.007 Y-5.665 E0.4113 F40
G1 X-18.958 Y-5.503 E0.3951 F40
G1 X-18.957 Y-5.499 E0.3947 F40
G1 X-18.764 Y-3.550 E0.2007 F40
G1 X-18.759 Y-3.500 E0.1957 F40
G1 X-18.951 Y-1.552 E0.0000 F40
G1 X-39.000 Y-13.500 F150
G1 X-18.999 Y-13.500 E2.0001 F40
G1 X-39.000 Y-9.500 F150
G1 X-18.999 Y-9.500 E2.0001 F40
G1 X-39.000 Y-5.500 F150
G1 X-18.999 Y-5.500 E2.0001 F40
G1 X-39.000 Y-1.500 F150
G1 X-18.999 Y-1.500 E2.0001 F40
G1 X-39.000 Y2.500 F150
G1 X-18.999 Y2.500 E2.0001 F40

; Layer 21
G1 Z4.200 F150
G1 B0.37 F100  ; Rotate extruder
G1 X-18.951 Y-1.552 F150
G1 X-18.957 Y-1.502 E0.0050 F40
G1 X-18.971 Y-1.454 E0.0100 F40
G1 X-19.540 Y0.420 E0.2058 F40
G1 X-20.463 Y2.147 E0.3996 F40
G1 X-20.486 Y2.191 E0.4046 F40
G1 X-20.497 Y2.205 E0.4062 F40
G1 X-20.926 Y2.729 E0.4714 F40
G1 X-21.740 Y3.718 E0.5962 F40
G1 X-21.761 Y3.743 E0.5995 F40
G1 X-21.800 Y3.775 E0.6041 F40
G1 X-23.314 Y5.017 E0.7886 F40
G1 X-25.041 Y5.939 E0.9654 F40
G1 X-25.085 Y5.963 E0.9700 F40
G1 X-25.133 Y5.978 E0.9742 F40
G1 X-27.007 Y6.545 E1.1422 F40
G1 X-27.057 Y6.550 E1.1460 F40
G1 X-29.006 Y6.740 E1.3033 F40
G1 X-29.055 Y6.736 E1.3068 F40
G1 X-31.003 Y6.543 E1.4518 F40
G1 X-32.876 Y5.974 E1.5828 F40
G1 X-32.924 Y5.959 E1.5863 F40
G1 X-34.650 Y5.036 E1.7024 F40
G1 X-34.694 Y5.012 E1.7056 F40
G1 X-34.733 Y4.980 E1.7080 F40
G1 X-36.244 Y3.738 E1.8084 F40
G1 X-37.056 Y2.749 E1.8608 F40
G1 X-37.077 Y2.723 E1.8623 F40
G1 X-37.088 Y2.710 E1.8630 F40
G1 X-37.517 Y2.186 E1.8938 F40
G1 X-38.439 Y0.460 E1.9591 F40
G1 X-38.462 Y0.416 E1.9610 F40
G1 X-39.029 Y-1.456 E2.0078 F40
G1 X-39.044 Y-1.504 E2.0092 F40
G1 X-39.235 Y-3.450 E2.0372 F40
G1 X-39.240 Y-3.500 E2.0382 F40
G1 X-39.235 Y-3.550 E2.0382 F40
G1 X-39.042 Y-5.497 E2.0474 F40
G1 X-39.028 Y-5.545 E2.0470 F40
G1 X-38.460 Y-7.417 E2.0371 F40
G1 X-38.436 Y-7.461 E2.0361 F40
G1 X-37.515 Y-9.186 E2.0072 F40
G1 X-36.275 Y-10.699 E1.9589 F40
G1 X-36.243 Y-10.737 E1.9579 F40
G1 X-35.255 Y-11.551 E1.9125 F40
G1 X-35.229 Y-11.571 E1.9114 F40
G1 X-35.216 Y-11.582 E1.9109 F40
G1 X-34.692 Y-12.011 E1.8899 F40
G1 X-32.967 Y-12.934 E1.8055 F40
G1 X-32.923 Y-12.957 E1.8036 F40
G1 X-32.875 Y-12.972 E1.8008 F40
G1 X-31.003 Y-13.541 E1.6999 F40
G1 X-29.055 Y-13.735 E1.5827 F40
G1 X-29.005 Y-13.739 E1.5799 F40
G1 X-28.956 Y-13.735 E1.5764 F40
G1 X-27.008 Y-13.543 E1.4446 F40
G1 X-25.134 Y-12.976 E1.2990 F40
G1 X-25.086 Y-12.961 E1.2954 F40
G1 X-25.042 Y-12.938 E1.2912 F40
G1 X-23.315 Y-12.016 E1.1337 F40
G1 X-23.276 Y-11.984 E1.1293 F40
G1 X-21.763 Y-10.743 E0.9611 F40
G1 X-20.520 Y-9.230 E0.7837 F40
G1 X-20.488 Y-9.191 E0.7792 F40
G1 X-20.464 Y-9.147 E0.7744 F40
G1 X-19.541 Y-7.421 E0.5898 F40
G1 X-19.527 Y-7.377 E0.5853 F40
G1 X-19.007 Y-5.665 E0.4113 F40
G1 X-18.958 Y-5.503 E0.3951 F40
G1 X-18.957 Y-5.499 E0.3947 F40
G1 X-18.764 Y-3.550 E0.2007 F40
G1 X-18.759 Y-3.500 E0.1957 F40
G1 X-18.951 Y-1.552 E0.0000 F40
G1 X-39.000 Y-13.500 F150
G1 X-18.999 Y-13.500 E2.0001 F40
G1 X-39.000 Y-9.500 F150
G1 X-18.999 Y-9.500 E2.0001 F40
G1 X-39.000 Y-5.500 F150
G1 X-18.999 Y-5.500 E2.0001 F40
G1 X-39.000 Y-1.500 F150
G1 X-18.999 Y-1.500 E2.0001 F40
G1 X-39.000 Y2.500 F150
G1 X-18.999 Y2.500 E2.0001 F40

; Layer 22
G1 Z4.400 F150
G1 X-18.951 Y-1.552 F150
G1 X-18.957 Y-1.502 E0.0050 F40
G1 X-18.971 Y-1.454 E0.0100 F40
G1 X-19.540 Y0.420 E0.2058 F40
G1 X-20.463 Y2.147 E0.3996 F40
G1 X-20.486 Y2.191 E0.4046 F40
G1 X-20.497 Y2.205 E0.4062 F40
G1 X-20.926 Y2.729 E0.4714 F40
G1 X-21.740 Y3.718 E0.5962 F40
G1 X-21.761 Y3.743 E0.5995 F40
G1 X-21.800 Y3.775 E0.6041 F40
G1 X-23.314 Y5.017 E0.7886 F40
G1 X-25.041 Y5.939 E0.9654 F40
G1 X-25.085 Y5.963 E0.9700 F40
G1 X-25.133 Y5.978 E0.9742 F40
G1 X-27.007 Y6.545 E1.1422 F40
G1 X-27.057 Y6.550 E1.1460 F40
G1 X-29.006 Y6.740 E1.3033 F40
G1 X-29.055 Y6.736 E1.3068 F40
G1 X-31.003 Y6.543 E1.4518 F40
G1 X-32.876 Y5.974 E1.5828 F40
G1 X-32.924 Y5.959 E1.5863 F40
G1 X-34.650 Y5.036 E1.7024 F40
G1 X-34.694 Y5.012 E1.7056 F40
G1 X-34.733 Y4.980 E1.7080 F40
G1 X-36.244 Y3.738 E1.8084 F40
G1 X-37.056 Y2.749 E1.8608 F40
G1 X-37.077 Y2.723 E1.8623 F40
G1 X-37.088 Y2.710 E1.8630 F40
G1 X-37.517 Y2.186 E1.8938 F40
G1 X-38.439 Y0.460 E1.9591 F40
G1 X-38.462 Y0.416 E1.9610 F40
G1 X-39.029 Y-1.456 E2.0078 F40
G1 X-39.044 Y-1.504 E2.0092 F40
G1 X-39.235 Y-3.450 E2.0372 F40
G1 X-39.240 Y-3.500 E2.0382 F40
G1 X-39.235 Y-3.550 E2.0382 F40
G1 X-39.042 Y-5.497 E2.0474 F40
G1 X-39.028 Y-5.545 E2.0470 F40
G1 X-38.460 Y-7.417 E2.0371 F40
G1 X-38.436 Y-7.461 E2.0361 F40
G1 X-37.515 Y-9.186 E2.0072 F40
G1 X-36.275 Y-10.699 E1.9589 F40
G1 X-36.243 Y-10.737 E1.9579 F40
G1 X-35.255 Y-11.551 E1.9125 F40
G1 X-35.229 Y-11.571 E1.9114 F40
G1 X-35.216 Y-11.582 E1.9109 F40
G1 X-34.692 Y-12.011 E1.8899 F40
G1 X-32.967 Y-12.934 E1.8055 F40
G1 X-32.923 Y-12.957 E1.8036 F40
G1 X-32.875 Y-12.972 E1.8008 F40
G1 X-31.003 Y-13.541 E1.6999 F40
G1 X-29.055 Y-13.735 E1.5827 F40
G1 X-29.005 Y-13.739 E1.5799 F40
G1 X-28.956 Y-13.735 E1.5764 F40
G1 X-27.008 Y-13.543 E1.4446 F40
G1 X-25.134 Y-12.976 E1.2990 F40
G1 X-25.086 Y-12.961 E1.2954 F40
G1 X-25.042 Y-12.938 E1.2912 F40
G1 X-23.315 Y-12.016 E1.1337 F40
G1 X-23.276 Y-11.984 E1.1293 F40
G1 X-21.763 Y-10.743 E0.9611 F40
G1 X-20.520 Y-9.230 E0.7837 F40
G1 X-20.488 Y-9.191 E0.7792 F40
G1 X-20.464 Y-9.147 E0.7744 F40
G1 X-19.541 Y-7.421 E0.5898 F40
G1 X-19.527 Y-7.377 E0.5853 F40
G1 X-19.007 Y-5.665 E0.4113 F40
G1 X-18.958 Y-5.503 E0.3951 F40
G1 X-18.957 Y-5.499 E0.3947 F40
G1 X-18.764 Y-3.550 E0.2007 F40
G1 X-18.759 Y-3.500 E0.1957 F40
G1 X-18.951 Y-1.552 E0.0000 F40
G1 X-39.000 Y-13.500 F150
G1 X-18.999 Y-13.500 E2.0001 F40
G1 X-39.000 Y-9.500 F150
G1 X-18.999 Y-9.500 E2.0001 F40
G1 X-39.000 Y-5.500 F150
G1 X-18.999 Y-5.500 E2.0001 F40
G1 X-39.000 Y-1.500 F150
G1 X-18.999 Y-1.500 E2.0001 F40
G1 X-39.000 Y2.500 F150
G1 X-18.999 Y2.500 E2.0001 F40

; Layer 23
G1 Z4.600 F150
G1 X-18.951 Y-1.552 F150
G1 X-18.957 Y-1.502 E0.0050 F40
G1 X-18.971 Y-1.454 E0.0100 F40
G1 X-19.540 Y0.420 E0.2058 F40
G1 X-20.463 Y2.147 E0.3996 F40
G1 X-20.486 Y2.191 E0.4046 F40
G1 X-20.497 Y2.205 E0.4062 F40
G1 X-20.926 Y2.729 E0.4714 F40
G1 X-21.740 Y3.718 E0.5962 F40
G1 X-21.761 Y3.743 E0.5995 F40
G1 X-21.800 Y3.775 E0.6041 F40
G1 X-23.314 Y5.017 E0.7886 F40
G1 X-25.041 Y5.939 E0.9654 F40
G1 X-25.085 Y5.963 E0.9700 F40
G1 X-25.133 Y5.978 E0.9742 F40
G1 X-27.007 Y6.545 E1.1422 F40
G1 X-27.057 Y6.550 E1.1460 F40
G1 X-29.006 Y6.740 E1.3033 F40
G1 X-29.055 Y6.736 E1.3068 F40
G1 X-31.003 Y6.543 E1.4518 F40
G1 X-32.876 Y5.974 E1.5828 F40
G1 X-32.924 Y5.959 E1.5863 F40
G1 X-34.650 Y5.036 E1.7024 F40
G1 X-34.694 Y5.012 E1.7056 F40
G1 X-34.733 Y4.980 E1.7080 F40
G1 X-36.244 Y3.738 E1.8084 F40
G1 X-37.056 Y2.749 E1.8608 F40
G1 X-37.077 Y2.723 E1.8623 F40
G1 X-37.088 Y2.710 E1.8630 F40
G1 X-37.517 Y2.186 E1.8938 F40
G1 X-38.439 Y0.460 E1.9591 F40
G1 X-38.462 Y0.416 E1.9610 F40
G1 X-39.029 Y-1.456 E2.0078 F40
G1 X-39.044 Y-1.504 E2.0092 F40
G1 X-39.235 Y-3.450 E2.0372 F40
G1 X-39.240 Y-3.500 E2.0382 F40
G1 X-39.235 Y-3.550 E2.0382 F40
G1 X-39.042 Y-5.497 E2.0474 F40
G1 X-39.028 Y-5.545 E2.0470 F40
G1 X-38.460 Y-7.417 E2.0371 F40
G1 X-38.436 Y-7.461 E2.0361 F40
G1 X-37.515 Y-9.186 E2.0072 F40
G1 X-36.275 Y-10.699 E1.9589 F40
G1 X-36.243 Y-10.737 E1.9579 F40
G1 X-35.255 Y-11.551 E1.9125 F40
G1 X-35.229 Y-11.571 E1.9114 F40
G1 X-35.216 Y-11.582 E1.9109 F40
G1 X-34.692 Y-12.011 E1.8899 F40
G1 X-32.967 Y-12.934 E1.8055 F40
G1 X-32.923 Y-12.957 E1.8036 F40
G1 X-32.875 Y-12.972 E1.8008 F40
G1 X-31.003 Y-13.541 E1.6999 F40
G1 X-29.055 Y-13.735 E1.5827 F40
G1 X-29.005 Y-13.739 E1.5799 F40
G1 X-28.956 Y-13.735 E1.5764 F40
G1 X-27.008 Y-13.543 E1.4446 F40
G1 X-25.134 Y-12.976 E1.2990 F40
G1 X-25.086 Y-12.961 E1.2954 F40
G1 X-25.042 Y-12.938 E1.2912 F40
G1 X-23.315 Y-12.016 E1.1337 F40
G1 X-23.276 Y-11.984 E1.1293 F40
G1 X-21.763 Y-10.743 E0.9611 F40
G1 X-20.520 Y-9.230 E0.7837 F40
G1 X-20.488 Y-9.191 E0.7792 F40
G1 X-20.464 Y-9.147 E0.7744 F40
G1 X-19.541 Y-7.421 E0.5898 F40
G1 X-19.527 Y-7.377 E0.5853 F40
G1 X-19.007 Y-5.665 E0.4113 F40
G1 X-18.958 Y-5.503 E0.3951 F40
G1 X-18.957 Y-5.499 E0.3947 F40
G1 X-18.764 Y-3.550 E0.2007 F40
G1 X-18.759 Y-3.500 E0.1957 F40
G1 X-18.951 Y-1.552 E0.0000 F40
G1 X-39.000 Y-13.500 F150
G1 X-18.999 Y-13.500 E2.0001 F40
G1 X-39.000 Y-9.500 F150
G1 X-18.999 Y-9.500 E2.0001 F40
G1 X-39.000 Y-5.500 F150
G1 X-18.999 Y-5.500 E2.0001 F40
G1 X-39.000 Y-1.500 F150
G1 X-18.999 Y-1.500 E2.0001 F40
G1 X-39.000 Y2.500 F150
G1 X-18.999 Y2.500 E2.0001 F40

; Layer 24
G1 Z4.800 F150
G1 B0.49 F100  ; Rotate extruder
G1 X-18.951 Y-1.552 F150
G1 X-18.957 Y-1.502 E0.0050 F40
G1 X-18.971 Y-1.454 E0.0100 F40
G1 X-19.540 Y0.420 E0.2058 F40
G1 X-20.463 Y2.147 E0.3996 F40
G1 X-20.486 Y2.191 E0.4046 F40
G1 X-20.497 Y2.205 E0.4062 F40
G1 X-20.926 Y2.729 E0.4714 F40
G1 X-21.740 Y3.718 E0.5962 F40
G1 X-21.761 Y3.743 E0.5995 F40
G1 X-21.800 Y3.775 E0.6041 F40
G1 X-23.314 Y5.017 E0.7886 F40
G1 X-25.041 Y5.939 E0.9654 F40
G1 X-25.085 Y5.963 E0.9700 F40
G1 X-25.133 Y5.978 E0.9742 F40
G1 X-27.007 Y6.545 E1.1422 F40
G1 X-27.057 Y6.550 E1.1460 F40
G1 X-29.006 Y6.740 E1.3033 F40
G1 X-29.055 Y6.736 E1.3068 F40
G1 X-31.003 Y6.543 E1.4518 F40
G1 X-32.876 Y5.974 E1.5828 F40
G1 X-32.924 Y5.959 E1.5863 F40
G1 X-34.650 Y5.036 E1.7024 F40
G1 X-34.694 Y5.012 E1.7056 F40
G1 X-34.733 Y4.980 E1.7080 F40
G1 X-36.244 Y3.738 E1.8084 F40
G1 X-37.056 Y2.749 E1.8608 F40
G1 X-37.077 Y2.723 E1.8623 F40
G1 X-37.088 Y2.710 E1.8630 F40
G1 X-37.517 Y2.186 E1.8938 F40
G1 X-38.439 Y0.460 E1.9591 F40
G1 X-38.462 Y0.416 E1.9610 F40
G1 X-39.029 Y-1.456 E2.0078 F40
G1 X-39.044 Y-1.504 E2.0092 F40
G1 X-39.235 Y-3.450 E2.0372 F40
G1 X-39.240 Y-3.500 E2.0382 F40
G1 X-39.235 Y-3.550 E2.0382 F40
G1 X-39.042 Y-5.497 E2.0474 F40
G1 X-39.028 Y-5.545 E2.0470 F40
G1 X-38.460 Y-7.417 E2.0371 F40
G1 X-38.436 Y-7.461 E2.0361 F40
G1 X-37.515 Y-9.186 E2.0072 F40
G1 X-36.275 Y-10.699 E1.9589 F40
G1 X-36.243 Y-10.737 E1.9579 F40
G1 X-35.255 Y-11.551 E1.9125 F40
G1 X-35.229 Y-11.571 E1.9114 F40
G1 X-35.216 Y-11.582 E1.9109 F40
G1 X-34.692 Y-12.011 E1.8899 F40
G1 X-32.967 Y-12.934 E1.8055 F40
G1 X-32.923 Y-12.957 E1.8036 F40
G1 X-32.875 Y-12.972 E1.8008 F40
G1 X-31.003 Y-13.541 E1.6999 F40
G1 X-29.055 Y-13.735 E1.5827 F40
G1 X-29.005 Y-13.739 E1.5799 F40
G1 X-28.956 Y-13.735 E1.5764 F40
G1 X-27.008 Y-13.543 E1.4446 F40
G1 X-25.134 Y-12.976 E1.2990 F40
G1 X-25.086 Y-12.961 E1.2954 F40
G1 X-25.042 Y-12.938 E1.2912 F40
G1 X-23.315 Y-12.016 E1.1337 F40
G1 X-23.276 Y-11.984 E1.1293 F40
G1 X-21.763 Y-10.743 E0.9611 F40
G1 X-20.520 Y-9.230 E0.7837 F40
G1 X-20.488 Y-9.191 E0.7792 F40
G1 X-20.464 Y-9.147 E0.7744 F40
G1 X-19.541 Y-7.421 E0.5898 F40
G1 X-19.527 Y-7.377 E0.5853 F40
G1 X-19.007 Y-5.665 E0.4113 F40
G1 X-18.958 Y-5.503 E0.3951 F40
G1 X-18.957 Y-5.499 E0.3947 F40
G1 X-18.764 Y-3.550 E0.2007 F40
G1 X-18.759 Y-3.500 E0.1957 F40
G1 X-18.951 Y-1.552 E0.0000 F40
G1 X-39.000 Y-13.500 F150
G1 X-18.999 Y-13.500 E2.0001 F40
G1 X-39.000 Y-9.500 F150
G1 X-18.999 Y-9.500 E2.0001 F40
G1 X-39.000 Y-5.500 F150
G1 X-18.999 Y-5.500 E2.0001 F40
G1 X-39.000 Y-1.500 F150
G1 X-18.999 Y-1.500 E2.0001 F40
G1 X-39.000 Y2.500 F150
G1 X-18.999 Y2.500 E2.0001 F40

; Layer 25
G1 Z5.000 F150
G1 X-18.951 Y-1.552 F150
G1 X-18.957 Y-1.502 E0.0050 F40
G1 X-18.971 Y-1.454 E0.0100 F40
G1 X-19.540 Y0.420 E0.2058 F40
G1 X-20.463 Y2.147 E0.3996 F40
G1 X-20.486 Y2.191 E0.4046 F40
G1 X-20.497 Y2.205 E0.4062 F40
G1 X-20.926 Y2.729 E0.4714 F40
G1 X-21.740 Y3.718 E0.5962 F40
G1 X-21.761 Y3.743 E0.5995 F40
G1 X-21.800 Y3.775 E0.6041 F40
G1 X-23.314 Y5.017 E0.7886 F40
G1 X-25.041 Y5.939 E0.9654 F40
G1 X-25.085 Y5.963 E0.9700 F40
G1 X-25.133 Y5.978 E0.9742 F40
G1 X-27.007 Y6.545 E1.1422 F40
G1 X-27.057 Y6.550 E1.1460 F40
G1 X-29.006 Y6.740 E1.3033 F40
G1 X-29.055 Y6.736 E1.3068 F40
G1 X-31.003 Y6.543 E1.4518 F40
G1 X-32.876 Y5.974 E1.5828 F40
G1 X-32.924 Y5.959 E1.5863 F40
G1 X-34.650 Y5.036 E1.7024 F40
G1 X-34.694 Y5.012 E1.7056 F40
G1 X-34.733 Y4.980 E1.7080 F40
G1 X-36.244 Y3.738 E1.8084 F40
G1 X-37.056 Y2.749 E1.8608 F40
G1 X-37.077 Y2.723 E1.8623 F40
G1 X-37.088 Y2.710 E1.8630 F40
G1 X-37.517 Y2.186 E1.8938 F40
G1 X-38.439 Y0.460 E1.9591 F40
G1 X-38.462 Y0.416 E1.9610 F40
G1 X-39.029 Y-1.456 E2.0078 F40
G1 X-39.044 Y-1.504 E2.0092 F40
G1 X-39.235 Y-3.450 E2.0372 F40
G1 X-39.240 Y-3.500 E2.0382 F40
G1 X-39.235 Y-3.550 E2.0382 F40
G1 X-39.042 Y-5.497 E2.0474 F40
G1 X-39.028 Y-5.545 E2.0470 F40
G1 X-38.460 Y-7.417 E2.0371 F40
G1 X-38.436 Y-7.461 E2.0361 F40
G1 X-37.515 Y-9.186 E2.0072 F40
G1 X-36.275 Y-10.699 E1.9589 F40
G1 X-36.243 Y-10.737 E1.9579 F40
G1 X-35.255 Y-11.551 E1.9125 F40
G1 X-35.229 Y-11.571 E1.9114 F40
G1 X-35.216 Y-11.582 E1.9109 F40
G1 X-34.692 Y-12.011 E1.8899 F40
G1 X-32.967 Y-12.934 E1.8055 F40
G1 X-32.923 Y-12.957 E1.8036 F40
G1 X-32.875 Y-12.972 E1.8008 F40
G1 X-31.003 Y-13.541 E1.6999 F40
G1 X-29.055 Y-13.735 E1.5827 F40
G1 X-29.005 Y-13.739 E1.5799 F40
G1 X-28.956 Y-13.735 E1.5764 F40
G1 X-27.008 Y-13.543 E1.4446 F40
G1 X-25.134 Y-12.976 E1.2990 F40
G1 X-25.086 Y-12.961 E1.2954 F40
G1 X-25.042 Y-12.938 E1.2912 F40
G1 X-23.315 Y-12.016 E1.1337 F40
G1 X-23.276 Y-11.984 E1.1293 F40
G1 X-21.763 Y-10.743 E0.9611 F40
G1 X-20.520 Y-9.230 E0.7837 F40
G1 X-20.488 Y-9.191 E0.7792 F40
G1 X-20.464 Y-9.147 E0.7744 F40
G1 X-19.541 Y-7.421 E0.5898 F40
G1 X-19.527 Y-7.377 E0.5853 F40
G1 X-19.007 Y-5.665 E0.4113 F40
G1 X-18.958 Y-5.503 E0.3951 F40
G1 X-18.957 Y-5.499 E0.3947 F40
G1 X-18.764 Y-3.550 E0.2007 F40
G1 X-18.759 Y-3.500 E0.1957 F40
G1 X-18.951 Y-1.552 E0.0000 F40
G1 X-39.000 Y-13.500 F150
G1 X-18.999 Y-13.500 E2.0001 F40
G1 X-39.000 Y-9.500 F150
G1 X-18.999 Y-9.500 E2.0001 F40
G1 X-39.000 Y-5.500 F150
G1 X-18.999 Y-5.500 E2.0001 F40
G1 X-39.000 Y-1.500 F150
G1 X-18.999 Y-1.500 E2.0001 F40
G1 X-39.000 Y2.500 F150
G1 X-18.999 Y2.500 E2.0001 F40

; Layer 26
G1 Z5.200 F150
G1 X-18.951 Y-1.552 F150
G1 X-18.957 Y-1.502 E0.0050 F40
G1 X-18.971 Y-1.454 E0.0100 F40
G1 X-19.540 Y0.420 E0.2058 F40
G1 X-20.463 Y2.147 E0.3996 F40
G1 X-20.486 Y2.191 E0.4046 F40
G1 X-20.497 Y2.205 E0.4062 F40
G1 X-20.926 Y2.729 E0.4714 F40
G1 X-21.740 Y3.718 E0.5962 F40
G1 X-21.761 Y3.743 E0.5995 F40
G1 X-21.800 Y3.775 E0.6041 F40
G1 X-23.314 Y5.017 E0.7886 F40
G1 X-25.041 Y5.939 E0.9654 F40
G1 X-25.085 Y5.963 E0.9700 F40
G1 X-25.133 Y5.978 E0.9742 F40
G1 X-27.007 Y6.545 E1.1422 F40
G1 X-27.057 Y6.550 E1.1460 F40
G1 X-29.006 Y6.740 E1.3033 F40
G1 X-29.055 Y6.736 E1.3068 F40
G1 X-31.003 Y6.543 E1.4518 F40
G1 X-32.876 Y5.974 E1.5828 F40
G1 X-32.924 Y5.959 E1.5863 F40
G1 X-34.650 Y5.036 E1.7024 F40
G1 X-34.694 Y5.012 E1.7056 F40
G1 X-34.733 Y4.980 E1.7080 F40
G1 X-36.244 Y3.738 E1.8084 F40
G1 X-37.056 Y2.749 E1.8608 F40
G1 X-37.077 Y2.723 E1.8623 F40
G1 X-37.088 Y2.710 E1.8630 F40
G1 X-37.517 Y2.186 E1.8938 F40
G1 X-38.439 Y0.460 E1.9591 F40
G1 X-38.462 Y0.416 E1.9610 F40
G1 X-39.029 Y-1.456 E2.0078 F40
G1 X-39.044 Y-1.504 E2.0092 F40
G1 X-39.235 Y-3.450 E2.0372 F40
G1 X-39.240 Y-3.500 E2.0382 F40
G1 X-39.235 Y-3.550 E2.0382 F40
G1 X-39.042 Y-5.497 E2.0474 F40
G1 X-39.028 Y-5.545 E2.0470 F40
G1 X-38.460 Y-7.417 E2.0371 F40
G1 X-38.436 Y-7.461 E2.0361 F40
G1 X-37.515 Y-9.186 E2.0072 F40
G1 X-36.275 Y-10.699 E1.9589 F40
G1 X-36.243 Y-10.737 E1.9579 F40
G1 X-35.255 Y-11.551 E1.9125 F40
G1 X-35.229 Y-11.571 E1.9114 F40
G1 X-35.216 Y-11.582 E1.9109 F40
G1 X-34.692 Y-12.011 E1.8899 F40
G1 X-32.967 Y-12.934 E1.8055 F40
G1 X-32.923 Y-12.957 E1.8036 F40
G1 X-32.875 Y-12.972 E1.8008 F40
G1 X-31.003 Y-13.541 E1.6999 F40
G1 X-29.055 Y-13.735 E1.5827 F40
G1 X-29.005 Y-13.739 E1.5799 F40
G1 X-28.956 Y-13.735 E1.5764 F40
G1 X-27.008 Y-13.543 E1.4446 F40
G1 X-25.134 Y-12.976 E1.2990 F40
G1 X-25.086 Y-12.961 E1.2954 F40
G1 X-25.042 Y-12.938 E1.2912 F40
G1 X-23.315 Y-12.016 E1.1337 F40
G1 X-23.276 Y-11.984 E1.1293 F40
G1 X-21.763 Y-10.743 E0.9611 F40
G1 X-20.520 Y-9.230 E0.7837 F40
G1 X-20.488 Y-9.191 E0.7792 F40
G1 X-20.464 Y-9.147 E0.7744 F40
G1 X-19.541 Y-7.421 E0.5898 F40
G1 X-19.527 Y-7.377 E0.5853 F40
G1 X-19.007 Y-5.665 E0.4113 F40
G1 X-18.958 Y-5.503 E0.3951 F40
G1 X-18.957 Y-5.499 E0.3947 F40
G1 X-18.764 Y-3.550 E0.2007 F40
G1 X-18.759 Y-3.500 E0.1957 F40
G1 X-18.951 Y-1.552 E0.0000 F40
G1 X-39.000 Y-13.500 F150
G1 X-18.999 Y-13.500 E2.0001 F40
G1 X-39.000 Y-9.500 F150
G1 X-18.999 Y-9.500 E2.0001 F40
G1 X-39.000 Y-5.500 F150
G1 X-18.999 Y-5.500 E2.0001 F40
G1 X-39.000 Y-1.500 F150
G1 X-18.999 Y-1.500 E2.0001 F40
G1 X-39.000 Y2.500 F150
G1 X-18.999 Y2.500 E2.0001 F40

; Layer 27
G1 Z5.400 F150
G1 B0.62 F100  ; Rotate extruder
G1 X-18.951 Y-1.552 F150
G1 X-18.957 Y-1.502 E0.0050 F40
G1 X-18.971 Y-1.454 E0.0100 F40
G1 X-19.540 Y0.420 E0.2058 F40
G1 X-20.463 Y2.147 E0.3996 F40
G1 X-20.486 Y2.191 E0.4046 F40
G1 X-20.497 Y2.205 E0.4062 F40
G1 X-20.926 Y2.729 E0.4714 F40
G1 X-21.740 Y3.718 E0.5962 F40
G1 X-21.761 Y3.743 E0.5995 F40
G1 X-21.800 Y3.775 E0.6041 F40
G1 X-23.314 Y5.017 E0.7886 F40
G1 X-25.041 Y5.939 E0.9654 F40
G1 X-25.085 Y5.963 E0.9700 F40
G1 X-25.133 Y5.978 E0.9742 F40
G1 X-27.007 Y6.545 E1.1422 F40
G1 X-27.057 Y6.550 E1.1460 F40
G1 X-29.006 Y6.740 E1.3033 F40
G1 X-29.055 Y6.736 E1.3068 F40
G1 X-31.003 Y6.543 E1.4518 F40
G1 X-32.876 Y5.974 E1.5828 F40
G1 X-32.924 Y5.959 E1.5863 F40
G1 X-34.650 Y5.036 E1.7024 F40
G1 X-34.694 Y5.012 E1.7056 F40
G1 X-34.733 Y4.980 E1.7080 F40
G1 X-36.244 Y3.738 E1.8084 F40
G1 X-37.056 Y2.749 E1.8608 F40
G1 X-37.077 Y2.723 E1.8623 F40
G1 X-37.088 Y2.710 E1.8630 F40
G1 X-37.517 Y2.186 E1.8938 F40
G1 X-38.439 Y0.460 E1.9591 F40
G1 X-38.462 Y0.416 E1.9610 F40
G1 X-39.029 Y-1.456 E2.0078 F40
G1 X-39.044 Y-1.504 E2.0092 F40
G1 X-39.235 Y-3.450 E2.0372 F40
G1 X-39.240 Y-3.500 E2.0382 F40
G1 X-39.235 Y-3.550 E2.0382 F40
G1 X-39.042 Y-5.497 E2.0474 F40
G1 X-39.028 Y-5.545 E2.0470 F40
G1 X-38.460 Y-7.417 E2.0371 F40
G1 X-38.436 Y-7.461 E2.0361 F40
G1 X-37.515 Y-9.186 E2.0072 F40
G1 X-36.275 Y-10.699 E1.9589 F40
G1 X-36.243 Y-10.737 E1.9579 F40
G1 X-35.255 Y-11.551 E1.9125 F40
G1 X-35.229 Y-11.571 E1.9114 F40
G1 X-35.216 Y-11.582 E1.9109 F40
G1 X-34.692 Y-12.011 E1.8899 F40
G1 X-32.967 Y-12.934 E1.8055 F40
G1 X-32.923 Y-12.957 E1.8036 F40
G1 X-32.875 Y-12.972 E1.8008 F40
G1 X-31.003 Y-13.541 E1.6999 F40
G1 X-29.055 Y-13.735 E1.5827 F40
G1 X-29.005 Y-13.739 E1.5799 F40
G1 X-28.956 Y-13.735 E1.5764 F40
G1 X-27.008 Y-13.543 E1.4446 F40
G1 X-25.134 Y-12.976 E1.2990 F40
G1 X-25.086 Y-12.961 E1.2954 F40
G1 X-25.042 Y-12.938 E1.2912 F40
G1 X-23.315 Y-12.016 E1.1337 F40
G1 X-23.276 Y-11.984 E1.1293 F40
G1 X-21.763 Y-10.743 E0.9611 F40
G1 X-20.520 Y-9.230 E0.7837 F40
G1 X-20.488 Y-9.191 E0.7792 F40
G1 X-20.464 Y-9.147 E0.7744 F40
G1 X-19.541 Y-7.421 E0.5898 F40
G1 X-19.527 Y-7.377 E0.5853 F40
G1 X-19.007 Y-5.665 E0.4113 F40
G1 X-18.958 Y-5.503 E0.3951 F40
G1 X-18.957 Y-5.499 E0.3947 F40
G1 X-18.764 Y-3.550 E0.2007 F40
G1 X-18.759 Y-3.500 E0.1957 F40
G1 X-18.951 Y-1.552 E0.0000 F40
G1 X-39.000 Y-13.500 F150
G1 X-18.999 Y-13.500 E2.0001 F40
G1 X-39.000 Y-9.500 F150
G1 X-18.999 Y-9.500 E2.0001 F40
G1 X-39.000 Y-5.500 F150
G1 X-18.999 Y-5.500 E2.0001 F40
G1 X-39.000 Y-1.500 F150
G1 X-18.999 Y-1.500 E2.0001 F40
G1 X-39.000 Y2.500 F150
G1 X-18.999 Y2.500 E2.0001 F40

; Layer 28
G1 Z5.600 F150
G1 X-18.951 Y-1.552 F150
G1 X-18.957 Y-1.502 E0.0050 F40
G1 X-18.971 Y-1.454 E0.0100 F40
G1 X-19.540 Y0.420 E0.2058 F40
G1 X-20.463 Y2.147 E0.3996 F40
G1 X-20.486 Y2.191 E0.4046 F40
G1 X-20.497 Y2.205 E0.4062 F40
G1 X-20.926 Y2.729 E0.4714 F40
G1 X-21.740 Y3.718 E0.5962 F40
G1 X-21.761 Y3.743 E0.5995 F40
G1 X-21.800 Y3.775 E0.6041 F40
G1 X-23.314 Y5.017 E0.7886 F40
G1 X-25.041 Y5.939 E0.9654 F40
G1 X-25.085 Y5.963 E0.9700 F40
G1 X-25.133 Y5.978 E0.9742 F40
G1 X-27.007 Y6.545 E1.1422 F40
G1 X-27.057 Y6.550 E1.1460 F40
G1 X-29.006 Y6.740 E1.3033 F40
G1 X-29.055 Y6.736 E1.3068 F40
G1 X-31.003 Y6.543 E1.4518 F40
G1 X-32.876 Y5.974 E1.5828 F40
G1 X-32.924 Y5.959 E1.5863 F40
G1 X-34.650 Y5.036 E1.7024 F40
G1 X-34.694 Y5.012 E1.7056 F40
G1 X-34.733 Y4.980 E1.7080 F40
G1 X-36.244 Y3.738 E1.8084 F40
G1 X-37.056 Y2.749 E1.8608 F40
G1 X-37.077 Y2.723 E1.8623 F40
G1 X-37.088 Y2.710 E1.8630 F40
G1 X-37.517 Y2.186 E1.8938 F40
G1 X-38.439 Y0.460 E1.9591 F40
G1 X-38.462 Y0.416 E1.9610 F40
G1 X-39.029 Y-1.456 E2.0078 F40
G1 X-39.044 Y-1.504 E2.0092 F40
G1 X-39.235 Y-3.450 E2.0372 F40
G1 X-39.240 Y-3.500 E2.0382 F40
G1 X-39.235 Y-3.550 E2.0382 F40
G1 X-39.042 Y-5.497 E2.0474 F40
G1 X-39.028 Y-5.545 E2.0470 F40
G1 X-38.460 Y-7.417 E2.0371 F40
G1 X-38.436 Y-7.461 E2.0361 F40
G1 X-37.515 Y-9.186 E2.0072 F40
G1 X-36.275 Y-10.699 E1.9589 F40
G1 X-36.243 Y-10.737 E1.9579 F40
G1 X-35.255 Y-11.551 E1.9125 F40
G1 X-35.229 Y-11.571 E1.9114 F40
G1 X-35.216 Y-11.582 E1.9109 F40
G1 X-34.692 Y-12.011 E1.8899 F40
G1 X-32.967 Y-12.934 E1.8055 F40
G1 X-32.923 Y-12.957 E1.8036 F40
G1 X-32.875 Y-12.972 E1.8008 F40
G1 X-31.003 Y-13.541 E1.6999 F40
G1 X-29.055 Y-13.735 E1.5827 F40
G1 X-29.005 Y-13.739 E1.5799 F40
G1 X-28.956 Y-13.735 E1.5764 F40
G1 X-27.008 Y-13.543 E1.4446 F40
G1 X-25.134 Y-12.976 E1.2990 F40
G1 X-25.086 Y-12.961 E1.2954 F40
G1 X-25.042 Y-12.938 E1.2912 F40
G1 X-23.315 Y-12.016 E1.1337 F40
G1 X-23.276 Y-11.984 E1.1293 F40
G1 X-21.763 Y-10.743 E0.9611 F40
G1 X-20.520 Y-9.230 E0.7837 F40
G1 X-20.488 Y-9.191 E0.7792 F40
G1 X-20.464 Y-9.147 E0.7744 F40
G1 X-19.541 Y-7.421 E0.5898 F40
G1 X-19.527 Y-7.377 E0.5853 F40
G1 X-19.007 Y-5.665 E0.4113 F40
G1 X-18.958 Y-5.503 E0.3951 F40
G1 X-18.957 Y-5.499 E0.3947 F40
G1 X-18.764 Y-3.550 E0.2007 F40
G1 X-18.759 Y-3.500 E0.1957 F40
G1 X-18.951 Y-1.552 E0.0000 F40
G1 X-39.000 Y-13.500 F150
G1 X-18.999 Y-13.500 E2.0001 F40
G1 X-39.000 Y-9.500 F150
G1 X-18.999 Y-9.500 E2.0001 F40
G1 X-39.000 Y-5.500 F150
G1 X-18.999 Y-5.500 E2.0001 F40
G1 X-39.000 Y-1.500 F150
G1 X-18.999 Y-1.500 E2.0001 F40
G1 X-39.000 Y2.500 F150
G1 X-18.999 Y2.500 E2.0001 F40

; Layer 29
G1 Z5.800 F150
G1 X-18.951 Y-1.552 F150
G1 X-18.957 Y-1.502 E0.0050 F40
G1 X-18.971 Y-1.454 E0.0100 F40
G1 X-19.540 Y0.420 E0.2058 F40
G1 X-20.463 Y2.147 E0.3996 F40
G1 X-20.486 Y2.191 E0.4046 F40
G1 X-20.497 Y2.205 E0.4062 F40
G1 X-20.926 Y2.729 E0.4714 F40
G1 X-21.740 Y3.718 E0.5962 F40
G1 X-21.761 Y3.743 E0.5995 F40
G1 X-21.800 Y3.775 E0.6041 F40
G1 X-23.314 Y5.017 E0.7886 F40
G1 X-25.041 Y5.939 E0.9654 F40
G1 X-25.085 Y5.963 E0.9700 F40
G1 X-25.133 Y5.978 E0.9742 F40
G1 X-27.007 Y6.545 E1.1422 F40
G1 X-27.057 Y6.550 E1.1460 F40
G1 X-29.006 Y6.740 E1.3033 F40
G1 X-29.055 Y6.736 E1.3068 F40
G1 X-31.003 Y6.543 E1.4518 F40
G1 X-32.876 Y5.974 E1.5828 F40
G1 X-32.924 Y5.959 E1.5863 F40
G1 X-34.650 Y5.036 E1.7024 F40
G1 X-34.694 Y5.012 E1.7056 F40
G1 X-34.733 Y4.980 E1.7080 F40
G1 X-36.244 Y3.738 E1.8084 F40
G1 X-37.056 Y2.749 E1.8608 F40
G1 X-37.077 Y2.723 E1.8623 F40
G1 X-37.088 Y2.710 E1.8630 F40
G1 X-37.517 Y2.186 E1.8938 F40
G1 X-38.439 Y0.460 E1.9591 F40
G1 X-38.462 Y0.416 E1.9610 F40
G1 X-39.029 Y-1.456 E2.0078 F40
G1 X-39.044 Y-1.504 E2.0092 F40
G1 X-39.235 Y-3.450 E2.0372 F40
G1 X-39.240 Y-3.500 E2.0382 F40
G1 X-39.235 Y-3.550 E2.0382 F40
G1 X-39.042 Y-5.497 E2.0474 F40
G1 X-39.028 Y-5.545 E2.0470 F40
G1 X-38.460 Y-7.417 E2.0371 F40
G1 X-38.436 Y-7.461 E2.0361 F40
G1 X-37.515 Y-9.186 E2.0072 F40
G1 X-36.275 Y-10.699 E1.9589 F40
G1 X-36.243 Y-10.737 E1.9579 F40
G1 X-35.255 Y-11.551 E1.9125 F40
G1 X-35.229 Y-11.571 E1.9114 F40
G1 X-35.216 Y-11.582 E1.9109 F40
G1 X-34.692 Y-12.011 E1.8899 F40
G1 X-32.967 Y-12.934 E1.8055 F40
G1 X-32.923 Y-12.957 E1.8036 F40
G1 X-32.875 Y-12.972 E1.8008 F40
G1 X-31.003 Y-13.541 E1.6999 F40
G1 X-29.055 Y-13.735 E1.5827 F40
G1 X-29.005 Y-13.739 E1.5799 F40
G1 X-28.956 Y-13.735 E1.5764 F40
G1 X-27.008 Y-13.543 E1.4446 F40
G1 X-25.134 Y-12.976 E1.2990 F40
G1 X-25.086 Y-12.961 E1.2954 F40
G1 X-25.042 Y-12.938 E1.2912 F40
G1 X-23.315 Y-12.016 E1.1337 F40
G1 X-23.276 Y-11.984 E1.1293 F40
G1 X-21.763 Y-10.743 E0.9611 F40
G1 X-20.520 Y-9.230 E0.7837 F40
G1 X-20.488 Y-9.191 E0.7792 F40
G1 X-20.464 Y-9.147 E0.7744 F40
G1 X-19.541 Y-7.421 E0.5898 F40
G1 X-19.527 Y-7.377 E0.5853 F40
G1 X-19.007 Y-5.665 E0.4113 F40
G1 X-18.958 Y-5.503 E0.3951 F40
G1 X-18.957 Y-5.499 E0.3947 F40
G1 X-18.764 Y-3.550 E0.2007 F40
G1 X-18.759 Y-3.500 E0.1957 F40
G1 X-18.951 Y-1.552 E0.0000 F40
G1 X-39.000 Y-13.500 F150
G1 X-18.999 Y-13.500 E2.0001 F40
G1 X-39.000 Y-9.500 F150
G1 X-18.999 Y-9.500 E2.0001 F40
G1 X-39.000 Y-5.500 F150
G1 X-18.999 Y-5.500 E2.0001 F40
G1 X-39.000 Y-1.500 F150
G1 X-18.999 Y-1.500 E2.0001 F40
G1 X-39.000 Y2.500 F150
G1 X-18.999 Y2.500 E2.0001 F40

; Layer 30
G1 Z6.000 F150
G1 B0.77 F100  ; Rotate extruder
G1 X-18.951 Y-1.552 F150
G1 X-18.957 Y-1.502 E0.0050 F40
G1 X-18.971 Y-1.454 E0.0100 F40
G1 X-19.540 Y0.420 E0.2058 F40
G1 X-20.463 Y2.147 E0.3996 F40
G1 X-20.486 Y2.191 E0.4046 F40
G1 X-20.497 Y2.205 E0.4062 F40
G1 X-20.926 Y2.729 E0.4714 F40
G1 X-21.740 Y3.718 E0.5962 F40
G1 X-21.761 Y3.743 E0.5995 F40
G1 X-21.800 Y3.775 E0.6041 F40
G1 X-23.314 Y5.017 E0.7886 F40
G1 X-25.041 Y5.939 E0.9654 F40
G1 X-25.085 Y5.963 E0.9700 F40
G1 X-25.133 Y5.978 E0.9742 F40
G1 X-27.007 Y6.545 E1.1422 F40
G1 X-27.057 Y6.550 E1.1460 F40
G1 X-29.006 Y6.740 E1.3033 F40
G1 X-29.055 Y6.736 E1.3068 F40
G1 X-31.003 Y6.543 E1.4518 F40
G1 X-32.876 Y5.974 E1.5828 F40
G1 X-32.924 Y5.959 E1.5863 F40
G1 X-34.650 Y5.036 E1.7024 F40
G1 X-34.694 Y5.012 E1.7056 F40
G1 X-34.733 Y4.980 E1.7080 F40
G1 X-36.244 Y3.738 E1.8084 F40
G1 X-37.056 Y2.749 E1.8608 F40
G1 X-37.077 Y2.723 E1.8623 F40
G1 X-37.088 Y2.710 E1.8630 F40
G1 X-37.517 Y2.186 E1.8938 F40
G1 X-38.439 Y0.460 E1.9591 F40
G1 X-38.462 Y0.416 E1.9610 F40
G1 X-39.029 Y-1.456 E2.0078 F40
G1 X-39.044 Y-1.504 E2.0092 F40
G1 X-39.235 Y-3.450 E2.0372 F40
G1 X-39.240 Y-3.500 E2.0382 F40
G1 X-39.235 Y-3.550 E2.0382 F40
G1 X-39.042 Y-5.497 E2.0474 F40
G1 X-39.028 Y-5.545 E2.0470 F40
G1 X-38.460 Y-7.417 E2.0371 F40
G1 X-38.436 Y-7.461 E2.0361 F40
G1 X-37.515 Y-9.186 E2.0072 F40
G1 X-36.275 Y-10.699 E1.9589 F40
G1 X-36.243 Y-10.737 E1.9579 F40
G1 X-35.255 Y-11.551 E1.9125 F40
G1 X-35.229 Y-11.571 E1.9114 F40
G1 X-35.216 Y-11.582 E1.9109 F40
G1 X-34.692 Y-12.011 E1.8899 F40
G1 X-32.967 Y-12.934 E1.8055 F40
G1 X-32.923 Y-12.957 E1.8036 F40
G1 X-32.875 Y-12.972 E1.8008 F40
G1 X-31.003 Y-13.541 E1.6999 F40
G1 X-29.055 Y-13.735 E1.5827 F40
G1 X-29.005 Y-13.739 E1.5799 F40
G1 X-28.956 Y-13.735 E1.5764 F40
G1 X-27.008 Y-13.543 E1.4446 F40
G1 X-25.134 Y-12.976 E1.2990 F40
G1 X-25.086 Y-12.961 E1.2954 F40
G1 X-25.042 Y-12.938 E1.2912 F40
G1 X-23.315 Y-12.016 E1.1337 F40
G1 X-23.276 Y-11.984 E1.1293 F40
G1 X-21.763 Y-10.743 E0.9611 F40
G1 X-20.520 Y-9.230 E0.7837 F40
G1 X-20.488 Y-9.191 E0.7792 F40
G1 X-20.464 Y-9.147 E0.7744 F40
G1 X-19.541 Y-7.421 E0.5898 F40
G1 X-19.527 Y-7.377 E0.5853 F40
G1 X-19.007 Y-5.665 E0.4113 F40
G1 X-18.958 Y-5.503 E0.3951 F40
G1 X-18.957 Y-5.499 E0.3947 F40
G1 X-18.764 Y-3.550 E0.2007 F40
G1 X-18.759 Y-3.500 E0.1957 F40
G1 X-18.951 Y-1.552 E0.0000 F40
G1 X-39.000 Y-13.500 F150
G1 X-18.999 Y-13.500 E2.0001 F40
G1 X-39.000 Y-9.500 F150
G1 X-18.999 Y-9.500 E2.0001 F40
G1 X-39.000 Y-5.500 F150
G1 X-18.999 Y-5.500 E2.0001 F40
G1 X-39.000 Y-1.500 F150
G1 X-18.999 Y-1.500 E2.0001 F40
G1 X-39.000 Y2.500 F150
G1 X-18.999 Y2.500 E2.0001 F40

; Layer 31
G1 Z6.200 F150
G1 X-18.951 Y-1.552 F150
G1 X-18.957 Y-1.502 E0.0050 F40
G1 X-18.971 Y-1.454 E0.0100 F40
G1 X-19.540 Y0.420 E0.2058 F40
G1 X-20.463 Y2.147 E0.3996 F40
G1 X-20.486 Y2.191 E0.4046 F40
G1 X-20.497 Y2.205 E0.4062 F40
G1 X-20.926 Y2.729 E0.4714 F40
G1 X-21.740 Y3.718 E0.5962 F40
G1 X-21.761 Y3.743 E0.5995 F40
G1 X-21.800 Y3.775 E0.6041 F40
G1 X-23.314 Y5.017 E0.7886 F40
G1 X-25.041 Y5.939 E0.9654 F40
G1 X-25.085 Y5.963 E0.9700 F40
G1 X-25.133 Y5.978 E0.9742 F40
G1 X-27.007 Y6.545 E1.1422 F40
G1 X-27.057 Y6.550 E1.1460 F40
G1 X-29.006 Y6.740 E1.3033 F40
G1 X-29.055 Y6.736 E1.3068 F40
G1 X-31.003 Y6.543 E1.4518 F40
G1 X-32.876 Y5.974 E1.5828 F40
G1 X-32.924 Y5.959 E1.5863 F40
G1 X-34.650 Y5.036 E1.7024 F40
G1 X-34.694 Y5.012 E1.7056 F40
G1 X-34.733 Y4.980 E1.7080 F40
G1 X-36.244 Y3.738 E1.8084 F40
G1 X-37.056 Y2.749 E1.8608 F40
G1 X-37.077 Y2.723 E1.8623 F40
G1 X-37.088 Y2.710 E1.8630 F40
G1 X-37.517 Y2.186 E1.8938 F40
G1 X-38.439 Y0.460 E1.9591 F40
G1 X-38.462 Y0.416 E1.9610 F40
G1 X-39.029 Y-1.456 E2.0078 F40
G1 X-39.044 Y-1.504 E2.0092 F40
G1 X-39.235 Y-3.450 E2.0372 F40
G1 X-39.240 Y-3.500 E2.0382 F40
G1 X-39.235 Y-3.550 E2.0382 F40
G1 X-39.042 Y-5.497 E2.0474 F40
G1 X-39.028 Y-5.545 E2.0470 F40
G1 X-38.460 Y-7.417 E2.0371 F40
G1 X-38.436 Y-7.461 E2.0361 F40
G1 X-37.515 Y-9.186 E2.0072 F40
G1 X-36.275 Y-10.699 E1.9589 F40
G1 X-36.243 Y-10.737 E1.9579 F40
G1 X-35.255 Y-11.551 E1.9125 F40
G1 X-35.229 Y-11.571 E1.9114 F40
G1 X-35.216 Y-11.582 E1.9109 F40
G1 X-34.692 Y-12.011 E1.8899 F40
G1 X-32.967 Y-12.934 E1.8055 F40
G1 X-32.923 Y-12.957 E1.8036 F40
G1 X-32.875 Y-12.972 E1.8008 F40
G1 X-31.003 Y-13.541 E1.6999 F40
G1 X-29.055 Y-13.735 E1.5827 F40
G1 X-29.005 Y-13.739 E1.5799 F40
G1 X-28.956 Y-13.735 E1.5764 F40
G1 X-27.008 Y-13.543 E1.4446 F40
G1 X-25.134 Y-12.976 E1.2990 F40
G1 X-25.086 Y-12.961 E1.2954 F40
G1 X-25.042 Y-12.938 E1.2912 F40
G1 X-23.315 Y-12.016 E1.1337 F40
G1 X-23.276 Y-11.984 E1.1293 F40
G1 X-21.763 Y-10.743 E0.9611 F40
G1 X-20.520 Y-9.230 E0.7837 F40
G1 X-20.488 Y-9.191 E0.7792 F40
G1 X-20.464 Y-9.147 E0.7744 F40
G1 X-19.541 Y-7.421 E0.5898 F40
G1 X-19.527 Y-7.377 E0.5853 F40
G1 X-19.007 Y-5.665 E0.4113 F40
G1 X-18.958 Y-5.503 E0.3951 F40
G1 X-18.957 Y-5.499 E0.3947 F40
G1 X-18.764 Y-3.550 E0.2007 F40
G1 X-18.759 Y-3.500 E0.1957 F40
G1 X-18.951 Y-1.552 E0.0000 F40
G1 X-39.000 Y-13.500 F150
G1 X-18.999 Y-13.500 E2.0001 F40
G1 X-39.000 Y-9.500 F150
G1 X-18.999 Y-9.500 E2.0001 F40
G1 X-39.000 Y-5.500 F150
G1 X-18.999 Y-5.500 E2.0001 F40
G1 X-39.000 Y-1.500 F150
G1 X-18.999 Y-1.500 E2.0001 F40
G1 X-39.000 Y2.500 F150
G1 X-18.999 Y2.500 E2.0001 F40

; Layer 32
G1 Z6.400 F150
G1 B0.88 F100  ; Rotate extruder
G1 X-18.951 Y-1.552 F150
G1 X-18.957 Y-1.502 E0.0050 F40
G1 X-18.971 Y-1.454 E0.0100 F40
G1 X-19.540 Y0.420 E0.2058 F40
G1 X-20.463 Y2.147 E0.3996 F40
G1 X-20.486 Y2.191 E0.4046 F40
G1 X-20.497 Y2.205 E0.4062 F40
G1 X-20.926 Y2.729 E0.4714 F40
G1 X-21.740 Y3.718 E0.5962 F40
G1 X-21.761 Y3.743 E0.5995 F40
G1 X-21.800 Y3.775 E0.6041 F40
G1 X-23.314 Y5.017 E0.7886 F40
G1 X-25.041 Y5.939 E0.9654 F40
G1 X-25.085 Y5.963 E0.9700 F40
G1 X-25.133 Y5.978 E0.9742 F40
G1 X-27.007 Y6.545 E1.1422 F40
G1 X-27.057 Y6.550 E1.1460 F40
G1 X-29.006 Y6.740 E1.3033 F40
G1 X-29.055 Y6.736 E1.3068 F40
G1 X-31.003 Y6.543 E1.4518 F40
G1 X-32.876 Y5.974 E1.5828 F40
G1 X-32.924 Y5.959 E1.5863 F40
G1 X-34.650 Y5.036 E1.7024 F40
G1 X-34.694 Y5.012 E1.7056 F40
G1 X-34.733 Y4.980 E1.7080 F40
G1 X-36.244 Y3.738 E1.8084 F40
G1 X-37.056 Y2.749 E1.8608 F40
G1 X-37.077 Y2.723 E1.8623 F40
G1 X-37.088 Y2.710 E1.8630 F40
G1 X-37.517 Y2.186 E1.8938 F40
G1 X-38.439 Y0.460 E1.9591 F40
G1 X-38.462 Y0.416 E1.9610 F40
G1 X-39.029 Y-1.456 E2.0078 F40
G1 X-39.044 Y-1.504 E2.0092 F40
G1 X-39.235 Y-3.450 E2.0372 F40
G1 X-39.240 Y-3.500 E2.0382 F40
G1 X-39.235 Y-3.550 E2.0382 F40
G1 X-39.042 Y-5.497 E2.0474 F40
G1 X-39.028 Y-5.545 E2.0470 F40
G1 X-38.460 Y-7.417 E2.0371 F40
G1 X-38.436 Y-7.461 E2.0361 F40
G1 X-37.515 Y-9.186 E2.0072 F40
G1 X-36.275 Y-10.699 E1.9589 F40
G1 X-36.243 Y-10.737 E1.9579 F40
G1 X-35.255 Y-11.551 E1.9125 F40
G1 X-35.229 Y-11.571 E1.9114 F40
G1 X-35.216 Y-11.582 E1.9109 F40
G1 X-34.692 Y-12.011 E1.8899 F40
G1 X-32.967 Y-12.934 E1.8055 F40
G1 X-32.923 Y-12.957 E1.8036 F40
G1 X-32.875 Y-12.972 E1.8008 F40
G1 X-31.003 Y-13.541 E1.6999 F40
G1 X-29.055 Y-13.735 E1.5827 F40
G1 X-29.005 Y-13.739 E1.5799 F40
G1 X-28.956 Y-13.735 E1.5764 F40
G1 X-27.008 Y-13.543 E1.4446 F40
G1 X-25.134 Y-12.976 E1.2990 F40
G1 X-25.086 Y-12.961 E1.2954 F40
G1 X-25.042 Y-12.938 E1.2912 F40
G1 X-23.315 Y-12.016 E1.1337 F40
G1 X-23.276 Y-11.984 E1.1293 F40
G1 X-21.763 Y-10.743 E0.9611 F40
G1 X-20.520 Y-9.230 E0.7837 F40
G1 X-20.488 Y-9.191 E0.7792 F40
G1 X-20.464 Y-9.147 E0.7744 F40
G1 X-19.541 Y-7.421 E0.5898 F40
G1 X-19.527 Y-7.377 E0.5853 F40
G1 X-19.007 Y-5.665 E0.4113 F40
G1 X-18.958 Y-5.503 E0.3951 F40
G1 X-18.957 Y-5.499 E0.3947 F40
G1 X-18.764 Y-3.550 E0.2007 F40
G1 X-18.759 Y-3.500 E0.1957 F40
G1 X-18.951 Y-1.552 E0.0000 F40
G1 X-39.000 Y-13.500 F150
G1 X-18.999 Y-13.500 E2.0001 F40
G1 X-39.000 Y-9.500 F150
G1 X-18.999 Y-9.500 E2.0001 F40
G1 X-39.000 Y-5.500 F150
G1 X-18.999 Y-5.500 E2.0001 F40
G1 X-39.000 Y-1.500 F150
G1 X-18.999 Y-1.500 E2.0001 F40
G1 X-39.000 Y2.500 F150
G1 X-18.999 Y2.500 E2.0001 F40

; Layer 33
G1 Z6.600 F150
G1 X-18.951 Y-1.552 F150
G1 X-18.957 Y-1.502 E0.0050 F40
G1 X-18.971 Y-1.454 E0.0100 F40
G1 X-19.540 Y0.420 E0.2058 F40
G1 X-20.463 Y2.147 E0.3996 F40
G1 X-20.486 Y2.191 E0.4046 F40
G1 X-20.497 Y2.205 E0.4062 F40
G1 X-20.926 Y2.729 E0.4714 F40
G1 X-21.740 Y3.718 E0.5962 F40
G1 X-21.761 Y3.743 E0.5995 F40
G1 X-21.800 Y3.775 E0.6041 F40
G1 X-23.314 Y5.017 E0.7886 F40
G1 X-25.041 Y5.939 E0.9654 F40
G1 X-25.085 Y5.963 E0.9700 F40
G1 X-25.133 Y5.978 E0.9742 F40
G1 X-27.007 Y6.545 E1.1422 F40
G1 X-27.057 Y6.550 E1.1460 F40
G1 X-29.006 Y6.740 E1.3033 F40
G1 X-29.055 Y6.736 E1.3068 F40
G1 X-31.003 Y6.543 E1.4518 F40
G1 X-32.876 Y5.974 E1.5828 F40
G1 X-32.924 Y5.959 E1.5863 F40
G1 X-34.650 Y5.036 E1.7024 F40
G1 X-34.694 Y5.012 E1.7056 F40
G1 X-34.733 Y4.980 E1.7080 F40
G1 X-36.244 Y3.738 E1.8084 F40
G1 X-37.056 Y2.749 E1.8608 F40
G1 X-37.077 Y2.723 E1.8623 F40
G1 X-37.088 Y2.710 E1.8630 F40
G1 X-37.517 Y2.186 E1.8938 F40
G1 X-38.439 Y0.460 E1.9591 F40
G1 X-38.462 Y0.416 E1.9610 F40
G1 X-39.029 Y-1.456 E2.0078 F40
G1 X-39.044 Y-1.504 E2.0092 F40
G1 X-39.235 Y-3.450 E2.0372 F40
G1 X-39.240 Y-3.500 E2.0382 F40
G1 X-39.235 Y-3.550 E2.0382 F40
G1 X-39.042 Y-5.497 E2.0474 F40
G1 X-39.028 Y-5.545 E2.0470 F40
G1 X-38.460 Y-7.417 E2.0371 F40
G1 X-38.436 Y-7.461 E2.0361 F40
G1 X-37.515 Y-9.186 E2.0072 F40
G1 X-36.275 Y-10.699 E1.9589 F40
G1 X-36.243 Y-10.737 E1.9579 F40
G1 X-35.255 Y-11.551 E1.9125 F40
G1 X-35.229 Y-11.571 E1.9114 F40
G1 X-35.216 Y-11.582 E1.9109 F40
G1 X-34.692 Y-12.011 E1.8899 F40
G1 X-32.967 Y-12.934 E1.8055 F40
G1 X-32.923 Y-12.957 E1.8036 F40
G1 X-32.875 Y-12.972 E1.8008 F40
G1 X-31.003 Y-13.541 E1.6999 F40
G1 X-29.055 Y-13.735 E1.5827 F40
G1 X-29.005 Y-13.739 E1.5799 F40
G1 X-28.956 Y-13.735 E1.5764 F40
G1 X-27.008 Y-13.543 E1.4446 F40
G1 X-25.134 Y-12.976 E1.2990 F40
G1 X-25.086 Y-12.961 E1.2954 F40
G1 X-25.042 Y-12.938 E1.2912 F40
G1 X-23.315 Y-12.016 E1.1337 F40
G1 X-23.276 Y-11.984 E1.1293 F40
G1 X-21.763 Y-10.743 E0.9611 F40
G1 X-20.520 Y-9.230 E0.7837 F40
G1 X-20.488 Y-9.191 E0.7792 F40
G1 X-20.464 Y-9.147 E0.7744 F40
G1 X-19.541 Y-7.421 E0.5898 F40
G1 X-19.527 Y-7.377 E0.5853 F40
G1 X-19.007 Y-5.665 E0.4113 F40
G1 X-18.958 Y-5.503 E0.3951 F40
G1 X-18.957 Y-5.499 E0.3947 F40
G1 X-18.764 Y-3.550 E0.2007 F40
G1 X-18.759 Y-3.500 E0.1957 F40
G1 X-18.951 Y-1.552 E0.0000 F40
G1 X-39.000 Y-13.500 F150
G1 X-18.999 Y-13.500 E2.0001 F40
G1 X-39.000 Y-9.500 F150
G1 X-18.999 Y-9.500 E2.0001 F40
G1 X-39.000 Y-5.500 F150
G1 X-18.999 Y-5.500 E2.0001 F40
G1 X-39.000 Y-1.500 F150
G1 X-18.999 Y-1.500 E2.0001 F40
G1 X-39.000 Y2.500 F150
G1 X-18.999 Y2.500 E2.0001 F40

; Layer 34
G1 Z6.800 F150
G1 B0.99 F100  ; Rotate extruder
G1 X-18.951 Y-1.552 F150
G1 X-18.957 Y-1.502 E0.0050 F40
G1 X-18.971 Y-1.454 E0.0100 F40
G1 X-19.540 Y0.420 E0.2058 F40
G1 X-20.463 Y2.147 E0.3996 F40
G1 X-20.486 Y2.191 E0.4046 F40
G1 X-20.497 Y2.205 E0.4062 F40
G1 X-20.926 Y2.729 E0.4714 F40
G1 X-21.740 Y3.718 E0.5962 F40
G1 X-21.761 Y3.743 E0.5995 F40
G1 X-21.800 Y3.775 E0.6041 F40
G1 X-23.314 Y5.017 E0.7886 F40
G1 X-25.041 Y5.939 E0.9654 F40
G1 X-25.085 Y5.963 E0.9700 F40
G1 X-25.133 Y5.978 E0.9742 F40
G1 X-27.007 Y6.545 E1.1422 F40
G1 X-27.057 Y6.550 E1.1460 F40
G1 X-29.006 Y6.740 E1.3033 F40
G1 X-29.055 Y6.736 E1.3068 F40
G1 X-31.003 Y6.543 E1.4518 F40
G1 X-32.876 Y5.974 E1.5828 F40
G1 X-32.924 Y5.959 E1.5863 F40
G1 X-34.650 Y5.036 E1.7024 F40
G1 X-34.694 Y5.012 E1.7056 F40
G1 X-34.733 Y4.980 E1.7080 F40
G1 X-36.244 Y3.738 E1.8084 F40
G1 X-37.056 Y2.749 E1.8608 F40
G1 X-37.077 Y2.723 E1.8623 F40
G1 X-37.088 Y2.710 E1.8630 F40
G1 X-37.517 Y2.186 E1.8938 F40
G1 X-38.439 Y0.460 E1.9591 F40
G1 X-38.462 Y0.416 E1.9610 F40
G1 X-39.029 Y-1.456 E2.0078 F40
G1 X-39.044 Y-1.504 E2.0092 F40
G1 X-39.235 Y-3.450 E2.0372 F40
G1 X-39.240 Y-3.500 E2.0382 F40
G1 X-39.235 Y-3.550 E2.0382 F40
G1 X-39.042 Y-5.497 E2.0474 F40
G1 X-39.028 Y-5.545 E2.0470 F40
G1 X-38.460 Y-7.417 E2.0371 F40
G1 X-38.436 Y-7.461 E2.0361 F40
G1 X-37.515 Y-9.186 E2.0072 F40
G1 X-36.275 Y-10.699 E1.9589 F40
G1 X-36.243 Y-10.737 E1.9579 F40
G1 X-35.255 Y-11.551 E1.9125 F40
G1 X-35.229 Y-11.571 E1.9114 F40
G1 X-35.216 Y-11.582 E1.9109 F40
G1 X-34.692 Y-12.011 E1.8899 F40
G1 X-32.967 Y-12.934 E1.8055 F40
G1 X-32.923 Y-12.957 E1.8036 F40
G1 X-32.875 Y-12.972 E1.8008 F40
G1 X-31.003 Y-13.541 E1.6999 F40
G1 X-29.055 Y-13.735 E1.5827 F40
G1 X-29.005 Y-13.739 E1.5799 F40
G1 X-28.956 Y-13.735 E1.5764 F40
G1 X-27.008 Y-13.543 E1.4446 F40
G1 X-25.134 Y-12.976 E1.2990 F40
G1 X-25.086 Y-12.961 E1.2954 F40
G1 X-25.042 Y-12.938 E1.2912 F40
G1 X-23.315 Y-12.016 E1.1337 F40
G1 X-23.276 Y-11.984 E1.1293 F40
G1 X-21.763 Y-10.743 E0.9611 F40
G1 X-20.520 Y-9.230 E0.7837 F40
G1 X-20.488 Y-9.191 E0.7792 F40
G1 X-20.464 Y-9.147 E0.7744 F40
G1 X-19.541 Y-7.421 E0.5898 F40
G1 X-19.527 Y-7.377 E0.5853 F40
G1 X-19.007 Y-5.665 E0.4113 F40
G1 X-18.958 Y-5.503 E0.3951 F40
G1 X-18.957 Y-5.499 E0.3947 F40
G1 X-18.764 Y-3.550 E0.2007 F40
G1 X-18.759 Y-3.500 E0.1957 F40
G1 X-18.951 Y-1.552 E0.0000 F40
G1 X-39.000 Y-13.500 F150
G1 X-18.999 Y-13.500 E2.0001 F40
G1 X-39.000 Y-9.500 F150
G1 X-18.999 Y-9.500 E2.0001 F40
G1 X-39.000 Y-5.500 F150
G1 X-18.999 Y-5.500 E2.0001 F40
G1 X-39.000 Y-1.500 F150
G1 X-18.999 Y-1.500 E2.0001 F40
G1 X-39.000 Y2.500 F150
G1 X-18.999 Y2.500 E2.0001 F40

; Layer 35
G1 Z7.000 F150
G1 X-18.951 Y-1.552 F150
G1 X-18.957 Y-1.502 E0.0050 F40
G1 X-18.971 Y-1.454 E0.0100 F40
G1 X-19.540 Y0.420 E0.2058 F40
G1 X-20.463 Y2.147 E0.3996 F40
G1 X-20.486 Y2.191 E0.4046 F40
G1 X-20.497 Y2.205 E0.4062 F40
G1 X-20.926 Y2.729 E0.4714 F40
G1 X-21.740 Y3.718 E0.5962 F40
G1 X-21.761 Y3.743 E0.5995 F40
G1 X-21.800 Y3.775 E0.6041 F40
G1 X-23.314 Y5.017 E0.7886 F40
G1 X-25.041 Y5.939 E0.9654 F40
G1 X-25.085 Y5.963 E0.9700 F40
G1 X-25.133 Y5.978 E0.9742 F40
G1 X-27.007 Y6.545 E1.1422 F40
G1 X-27.057 Y6.550 E1.1460 F40
G1 X-29.006 Y6.740 E1.3033 F40
G1 X-29.055 Y6.736 E1.3068 F40
G1 X-31.003 Y6.543 E1.4518 F40
G1 X-32.876 Y5.974 E1.5828 F40
G1 X-32.924 Y5.959 E1.5863 F40
G1 X-34.650 Y5.036 E1.7024 F40
G1 X-34.694 Y5.012 E1.7056 F40
G1 X-34.733 Y4.980 E1.7080 F40
G1 X-36.244 Y3.738 E1.8084 F40
G1 X-37.056 Y2.749 E1.8608 F40
G1 X-37.077 Y2.723 E1.8623 F40
G1 X-37.088 Y2.710 E1.8630 F40
G1 X-37.517 Y2.186 E1.8938 F40
G1 X-38.439 Y0.460 E1.9591 F40
G1 X-38.462 Y0.416 E1.9610 F40
G1 X-39.029 Y-1.456 E2.0078 F40
G1 X-39.044 Y-1.504 E2.0092 F40
G1 X-39.235 Y-3.450 E2.0372 F40
G1 X-39.240 Y-3.500 E2.0382 F40
G1 X-39.235 Y-3.550 E2.0382 F40
G1 X-39.042 Y-5.497 E2.0474 F40
G1 X-39.028 Y-5.545 E2.0470 F40
G1 X-38.460 Y-7.417 E2.0371 F40
G1 X-38.436 Y-7.461 E2.0361 F40
G1 X-37.515 Y-9.186 E2.0072 F40
G1 X-36.275 Y-10.699 E1.9589 F40
G1 X-36.243 Y-10.737 E1.9579 F40
G1 X-35.255 Y-11.551 E1.9125 F40
G1 X-35.229 Y-11.571 E1.9114 F40
G1 X-35.216 Y-11.582 E1.9109 F40
G1 X-34.692 Y-12.011 E1.8899 F40
G1 X-32.967 Y-12.934 E1.8055 F40
G1 X-32.923 Y-12.957 E1.8036 F40
G1 X-32.875 Y-12.972 E1.8008 F40
G1 X-31.003 Y-13.541 E1.6999 F40
G1 X-29.055 Y-13.735 E1.5827 F40
G1 X-29.005 Y-13.739 E1.5799 F40
G1 X-28.956 Y-13.735 E1.5764 F40
G1 X-27.008 Y-13.543 E1.4446 F40
G1 X-25.134 Y-12.976 E1.2990 F40
G1 X-25.086 Y-12.961 E1.2954 F40
G1 X-25.042 Y-12.938 E1.2912 F40
G1 X-23.315 Y-12.016 E1.1337 F40
G1 X-23.276 Y-11.984 E1.1293 F40
G1 X-21.763 Y-10.743 E0.9611 F40
G1 X-20.520 Y-9.230 E0.7837 F40
G1 X-20.488 Y-9.191 E0.7792 F40
G1 X-20.464 Y-9.147 E0.7744 F40
G1 X-19.541 Y-7.421 E0.5898 F40
G1 X-19.527 Y-7.377 E0.5853 F40
G1 X-19.007 Y-5.665 E0.4113 F40
G1 X-18.958 Y-5.503 E0.3951 F40
G1 X-18.957 Y-5.499 E0.3947 F40
G1 X-18.764 Y-3.550 E0.2007 F40
G1 X-18.759 Y-3.500 E0.1957 F40
G1 X-18.951 Y-1.552 E0.0000 F40
G1 X-39.000 Y-13.500 F150
G1 X-18.999 Y-13.500 E2.0001 F40
G1 X-39.000 Y-9.500 F150
G1 X-18.999 Y-9.500 E2.0001 F40
G1 X-39.000 Y-5.500 F150
G1 X-18.999 Y-5.500 E2.0001 F40
G1 X-39.000 Y-1.500 F150
G1 X-18.999 Y-1.500 E2.0001 F40
G1 X-39.000 Y2.500 F150
G1 X-18.999 Y2.500 E2.0001 F40

; Layer 36
G1 Z7.200 F150
G1 B1.11 F100  ; Rotate extruder
G1 X-18.951 Y-1.552 F150
G1 X-18.957 Y-1.502 E0.0050 F40
G1 X-18.971 Y-1.454 E0.0100 F40
G1 X-19.540 Y0.420 E0.2058 F40
G1 X-20.463 Y2.147 E0.3996 F40
G1 X-20.486 Y2.191 E0.4046 F40
G1 X-20.497 Y2.205 E0.4062 F40
G1 X-20.926 Y2.729 E0.4714 F40
G1 X-21.740 Y3.718 E0.5962 F40
G1 X-21.761 Y3.743 E0.5995 F40
G1 X-21.800 Y3.775 E0.6041 F40
G1 X-23.314 Y5.017 E0.7886 F40
G1 X-25.041 Y5.939 E0.9654 F40
G1 X-25.085 Y5.963 E0.9700 F40
G1 X-25.133 Y5.978 E0.9742 F40
G1 X-27.007 Y6.545 E1.1422 F40
G1 X-27.057 Y6.550 E1.1460 F40
G1 X-29.006 Y6.740 E1.3033 F40
G1 X-29.055 Y6.736 E1.3068 F40
G1 X-31.003 Y6.543 E1.4518 F40
G1 X-32.876 Y5.974 E1.5828 F40
G1 X-32.924 Y5.959 E1.5863 F40
G1 X-34.650 Y5.036 E1.7024 F40
G1 X-34.694 Y5.012 E1.7056 F40
G1 X-34.733 Y4.980 E1.7080 F40
G1 X-36.244 Y3.738 E1.8084 F40
G1 X-37.056 Y2.749 E1.8608 F40
G1 X-37.077 Y2.723 E1.8623 F40
G1 X-37.088 Y2.710 E1.8630 F40
G1 X-37.517 Y2.186 E1.8938 F40
G1 X-38.439 Y0.460 E1.9591 F40
G1 X-38.462 Y0.416 E1.9610 F40
G1 X-39.029 Y-1.456 E2.0078 F40
G1 X-39.044 Y-1.504 E2.0092 F40
G1 X-39.235 Y-3.450 E2.0372 F40
G1 X-39.240 Y-3.500 E2.0382 F40
G1 X-39.235 Y-3.550 E2.0382 F40
G1 X-39.042 Y-5.497 E2.0474 F40
G1 X-39.028 Y-5.545 E2.0470 F40
G1 X-38.460 Y-7.417 E2.0371 F40
G1 X-38.436 Y-7.461 E2.0361 F40
G1 X-37.515 Y-9.186 E2.0072 F40
G1 X-36.275 Y-10.699 E1.9589 F40
G1 X-36.243 Y-10.737 E1.9579 F40
G1 X-35.255 Y-11.551 E1.9125 F40
G1 X-35.229 Y-11.571 E1.9114 F40
G1 X-35.216 Y-11.582 E1.9109 F40
G1 X-34.692 Y-12.011 E1.8899 F40
G1 X-32.967 Y-12.934 E1.8055 F40
G1 X-32.923 Y-12.957 E1.8036 F40
G1 X-32.875 Y-12.972 E1.8008 F40
G1 X-31.003 Y-13.541 E1.6999 F40
G1 X-29.055 Y-13.735 E1.5827 F40
G1 X-29.005 Y-13.739 E1.5799 F40
G1 X-28.956 Y-13.735 E1.5764 F40
G1 X-27.008 Y-13.543 E1.4446 F40
G1 X-25.134 Y-12.976 E1.2990 F40
G1 X-25.086 Y-12.961 E1.2954 F40
G1 X-25.042 Y-12.938 E1.2912 F40
G1 X-23.315 Y-12.016 E1.1337 F40
G1 X-23.276 Y-11.984 E1.1293 F40
G1 X-21.763 Y-10.743 E0.9611 F40
G1 X-20.520 Y-9.230 E0.7837 F40
G1 X-20.488 Y-9.191 E0.7792 F40
G1 X-20.464 Y-9.147 E0.7744 F40
G1 X-19.541 Y-7.421 E0.5898 F40
G1 X-19.527 Y-7.377 E0.5853 F40
G1 X-19.007 Y-5.665 E0.4113 F40
G1 X-18.958 Y-5.503 E0.3951 F40
G1 X-18.957 Y-5.499 E0.3947 F40
G1 X-18.764 Y-3.550 E0.2007 F40
G1 X-18.759 Y-3.500 E0.1957 F40
G1 X-18.951 Y-1.552 E0.0000 F40
G1 X-39.000 Y-13.500 F150
G1 X-18.999 Y-13.500 E2.0001 F40
G1 X-39.000 Y-9.500 F150
G1 X-18.999 Y-9.500 E2.0001 F40
G1 X-39.000 Y-5.500 F150
G1 X-18.999 Y-5.500 E2.0001 F40
G1 X-39.000 Y-1.500 F150
G1 X-18.999 Y-1.500 E2.0001 F40
G1 X-39.000 Y2.500 F150
G1 X-18.999 Y2.500 E2.0001 F40

; Layer 37
G1 Z7.400 F150
G1 X-18.951 Y-1.552 F150
G1 X-18.957 Y-1.502 E0.0050 F40
G1 X-18.971 Y-1.454 E0.0100 F40
G1 X-19.540 Y0.420 E0.2058 F40
G1 X-20.463 Y2.147 E0.3996 F40
G1 X-20.486 Y2.191 E0.4046 F40
G1 X-20.497 Y2.205 E0.4062 F40
G1 X-20.926 Y2.729 E0.4714 F40
G1 X-21.740 Y3.718 E0.5962 F40
G1 X-21.761 Y3.743 E0.5995 F40
G1 X-21.800 Y3.775 E0.6041 F40
G1 X-23.314 Y5.017 E0.7886 F40
G1 X-25.041 Y5.939 E0.9654 F40
G1 X-25.085 Y5.963 E0.9700 F40
G1 X-25.133 Y5.978 E0.9742 F40
G1 X-27.007 Y6.545 E1.1422 F40
G1 X-27.057 Y6.550 E1.1460 F40
G1 X-29.006 Y6.740 E1.3033 F40
G1 X-29.055 Y6.736 E1.3068 F40
G1 X-31.003 Y6.543 E1.4518 F40
G1 X-32.876 Y5.974 E1.5828 F40
G1 X-32.924 Y5.959 E1.5863 F40
G1 X-34.650 Y5.036 E1.7024 F40
G1 X-34.694 Y5.012 E1.7056 F40
G1 X-34.733 Y4.980 E1.7080 F40
G1 X-36.244 Y3.738 E1.8084 F40
G1 X-37.056 Y2.749 E1.8608 F40
G1 X-37.077 Y2.723 E1.8623 F40
G1 X-37.088 Y2.710 E1.8630 F40
G1 X-37.517 Y2.186 E1.8938 F40
G1 X-38.439 Y0.460 E1.9591 F40
G1 X-38.462 Y0.416 E1.9610 F40
G1 X-39.029 Y-1.456 E2.0078 F40
G1 X-39.044 Y-1.504 E2.0092 F40
G1 X-39.235 Y-3.450 E2.0372 F40
G1 X-39.240 Y-3.500 E2.0382 F40
G1 X-39.235 Y-3.550 E2.0382 F40
G1 X-39.042 Y-5.497 E2.0474 F40
G1 X-39.028 Y-5.545 E2.0470 F40
G1 X-38.460 Y-7.417 E2.0371 F40
G1 X-38.436 Y-7.461 E2.0361 F40
G1 X-37.515 Y-9.186 E2.0072 F40
G1 X-36.275 Y-10.699 E1.9589 F40
G1 X-36.243 Y-10.737 E1.9579 F40
G1 X-35.255 Y-11.551 E1.9125 F40
G1 X-35.229 Y-11.571 E1.9114 F40
G1 X-35.216 Y-11.582 E1.9109 F40
G1 X-34.692 Y-12.011 E1.8899 F40
G1 X-32.967 Y-12.934 E1.8055 F40
G1 X-32.923 Y-12.957 E1.8036 F40
G1 X-32.875 Y-12.972 E1.8008 F40
G1 X-31.003 Y-13.541 E1.6999 F40
G1 X-29.055 Y-13.735 E1.5827 F40
G1 X-29.005 Y-13.739 E1.5799 F40
G1 X-28.956 Y-13.735 E1.5764 F40
G1 X-27.008 Y-13.543 E1.4446 F40
G1 X-25.134 Y-12.976 E1.2990 F40
G1 X-25.086 Y-12.961 E1.2954 F40
G1 X-25.042 Y-12.938 E1.2912 F40
G1 X-23.315 Y-12.016 E1.1337 F40
G1 X-23.276 Y-11.984 E1.1293 F40
G1 X-21.763 Y-10.743 E0.9611 F40
G1 X-20.520 Y-9.230 E0.7837 F40
G1 X-20.488 Y-9.191 E0.7792 F40
G1 X-20.464 Y-9.147 E0.7744 F40
G1 X-19.541 Y-7.421 E0.5898 F40
G1 X-19.527 Y-7.377 E0.5853 F40
G1 X-19.007 Y-5.665 E0.4113 F40
G1 X-18.958 Y-5.503 E0.3951 F40
G1 X-18.957 Y-5.499 E0.3947 F40
G1 X-18.764 Y-3.550 E0.2007 F40
G1 X-18.759 Y-3.500 E0.1957 F40
G1 X-18.951 Y-1.552 E0.0000 F40
G1 X-39.000 Y-13.500 F150
G1 X-18.999 Y-13.500 E2.0001 F40
G1 X-39.000 Y-9.500 F150
G1 X-18.999 Y-9.500 E2.0001 F40
G1 X-39.000 Y-5.500 F150
G1 X-18.999 Y-5.500 E2.0001 F40
G1 X-39.000 Y-1.500 F150
G1 X-18.999 Y-1.500 E2.0001 F40
G1 X-39.000 Y2.500 F150
G1 X-18.999 Y2.500 E2.0001 F40

; Layer 38
G1 Z7.600 F150
G1 B1.23 F100  ; Rotate extruder
G1 X-18.951 Y-1.552 F150
G1 X-18.957 Y-1.502 E0.0050 F40
G1 X-18.971 Y-1.454 E0.0100 F40
G1 X-19.540 Y0.420 E0.2058 F40
G1 X-20.463 Y2.147 E0.3996 F40
G1 X-20.486 Y2.191 E0.4046 F40
G1 X-20.497 Y2.205 E0.4062 F40
G1 X-20.926 Y2.729 E0.4714 F40
G1 X-21.740 Y3.718 E0.5962 F40
G1 X-21.761 Y3.743 E0.5995 F40
G1 X-21.800 Y3.775 E0.6041 F40
G1 X-23.314 Y5.017 E0.7886 F40
G1 X-25.041 Y5.939 E0.9654 F40
G1 X-25.085 Y5.963 E0.9700 F40
G1 X-25.133 Y5.978 E0.9742 F40
G1 X-27.007 Y6.545 E1.1422 F40
G1 X-27.057 Y6.550 E1.1460 F40
G1 X-29.006 Y6.740 E1.3033 F40
G1 X-29.055 Y6.736 E1.3068 F40
G1 X-31.003 Y6.543 E1.4518 F40
G1 X-32.876 Y5.974 E1.5828 F40
G1 X-32.924 Y5.959 E1.5863 F40
G1 X-34.650 Y5.036 E1.7024 F40
G1 X-34.694 Y5.012 E1.7056 F40
G1 X-34.733 Y4.980 E1.7080 F40
G1 X-36.244 Y3.738 E1.8084 F40
G1 X-37.056 Y2.749 E1.8608 F40
G1 X-37.077 Y2.723 E1.8623 F40
G1 X-37.088 Y2.710 E1.8630 F40
G1 X-37.517 Y2.186 E1.8938 F40
G1 X-38.439 Y0.460 E1.9591 F40
G1 X-38.462 Y0.416 E1.9610 F40
G1 X-39.029 Y-1.456 E2.0078 F40
G1 X-39.044 Y-1.504 E2.0092 F40
G1 X-39.235 Y-3.450 E2.0372 F40
G1 X-39.240 Y-3.500 E2.0382 F40
G1 X-39.235 Y-3.550 E2.0382 F40
G1 X-39.042 Y-5.497 E2.0474 F40
G1 X-39.028 Y-5.545 E2.0470 F40
G1 X-38.460 Y-7.417 E2.0371 F40
G1 X-38.436 Y-7.461 E2.0361 F40
G1 X-37.515 Y-9.186 E2.0072 F40
G1 X-36.275 Y-10.699 E1.9589 F40
G1 X-36.243 Y-10.737 E1.9579 F40
G1 X-35.255 Y-11.551 E1.9125 F40
G1 X-35.229 Y-11.571 E1.9114 F40
G1 X-35.216 Y-11.582 E1.9109 F40
G1 X-34.692 Y-12.011 E1.8899 F40
G1 X-32.967 Y-12.934 E1.8055 F40
G1 X-32.923 Y-12.957 E1.8036 F40
G1 X-32.875 Y-12.972 E1.8008 F40
G1 X-31.003 Y-13.541 E1.6999 F40
G1 X-29.055 Y-13.735 E1.5827 F40
G1 X-29.005 Y-13.739 E1.5799 F40
G1 X-28.956 Y-13.735 E1.5764 F40
G1 X-27.008 Y-13.543 E1.4446 F40
G1 X-25.134 Y-12.976 E1.2990 F40
G1 X-25.086 Y-12.961 E1.2954 F40
G1 X-25.042 Y-12.938 E1.2912 F40
G1 X-23.315 Y-12.016 E1.1337 F40
